; generated by Slic3r 0.7.2b on 2012-05-06 at 10:25:28

; layer_height = 0.25
; perimeters = 2
; solid_layers = 3
; fill_density = 0.50
; nozzle_diameter = 0.35
; filament_diameter = 2.85
; extrusion_multiplier = 1
; perimeter_speed = 40
; infill_speed = 60
; travel_speed = 150
; extrusion_width_ratio = 0
; scale = 1
; single wall width = 0.39mm

M190 S110 
M104 S240 
G28                 
G92 E0 
G1 E3 F1200 
G1 E2 F1200 
G92 E0  
M109 S240 
G90 
G21 
G92 E0 
M82 
G1 Z0.250 F9000.000
G1 X67.860 Y73.540
G1 F1200.000 E1.50000
G1 X68.040 Y73.360 F1680.000 E1.50384
G1 X68.420 Y73.020 E1.51153
G1 X69.040 Y72.580 E1.52300
G1 X69.260 Y72.450 E1.52685
G1 X69.720 Y72.220 E1.53461
G1 X70.190 Y72.030 E1.54225
G1 X70.680 Y71.880 E1.54998
G1 X70.930 Y71.820 E1.55386
G1 X71.680 Y71.710 E1.56529
G1 X72.190 Y71.690 E1.57299
G1 X128.310 Y71.710 E2.41936
G1 X129.060 Y71.820 E2.43080
G1 X129.560 Y71.950 E2.43859
G1 X130.040 Y72.120 E2.44627
G1 X130.500 Y72.330 E2.45389
G1 X130.730 Y72.450 E2.45781
G1 X130.950 Y72.580 E2.46166
G1 X131.570 Y73.020 E2.47313
G1 X131.950 Y73.360 E2.48082
G1 X132.130 Y73.540 E2.48466
G1 X132.470 Y73.920 E2.49235
G1 X132.910 Y74.540 E2.50381
G1 X133.040 Y74.760 E2.50767
G1 X133.270 Y75.220 E2.51542
G1 X133.460 Y75.690 E2.52307
G1 X133.610 Y76.180 E2.53080
G1 X133.670 Y76.430 E2.53467
G1 X133.780 Y77.180 E2.54611
G1 X133.780 Y122.810 E3.23428
G1 X133.670 Y123.560 E3.24571
G1 X133.540 Y124.060 E3.25350
G1 X133.370 Y124.540 E3.26118
G1 X133.160 Y125.000 E3.26881
G1 X133.040 Y125.230 E3.27272
G1 X132.910 Y125.450 E3.27657
G1 X132.470 Y126.070 E3.28804
G1 X132.130 Y126.450 E3.29573
G1 X131.950 Y126.630 E3.29957
G1 X131.570 Y126.970 E3.30726
G1 X130.950 Y127.410 E3.31872
G1 X130.730 Y127.540 E3.32258
G1 X130.270 Y127.770 E3.33034
G1 X129.800 Y127.960 E3.33798
G1 X129.310 Y128.110 E3.34571
G1 X129.060 Y128.170 E3.34959
G1 X128.310 Y128.280 E3.36102
G1 X127.800 Y128.300 E3.36872
G1 X71.680 Y128.280 E4.21509
G1 X70.930 Y128.170 E4.22653
G1 X70.430 Y128.040 E4.23432
G1 X69.950 Y127.870 E4.24200
G1 X69.490 Y127.660 E4.24962
G1 X69.260 Y127.540 E4.25354
G1 X69.040 Y127.410 E4.25739
G1 X68.420 Y126.970 E4.26886
G1 X68.040 Y126.630 E4.27655
G1 X67.860 Y126.450 E4.28039
G1 X67.520 Y126.070 E4.28808
G1 X67.080 Y125.450 E4.29954
G1 X66.950 Y125.230 E4.30340
G1 X66.720 Y124.770 E4.31115
G1 X66.530 Y124.300 E4.31880
G1 X66.380 Y123.810 E4.32653
G1 X66.320 Y123.560 E4.33040
G1 X66.210 Y122.810 E4.34184
G1 X66.210 Y77.180 E5.03001
G1 X66.320 Y76.430 E5.04144
G1 X66.450 Y75.930 E5.04923
G1 X66.620 Y75.450 E5.05691
G1 X66.830 Y74.990 E5.06454
G1 X66.950 Y74.760 E5.06845
G1 X67.080 Y74.540 E5.07230
G1 X67.520 Y73.920 E5.08377
G1 X67.821 Y73.584 E5.09057
G1 F1200.000 E3.59057
G92 E0
G1 X115.019 Y111.061 F9000.000
G1 F1200.000 E1.50000
G1 X115.362 Y110.681 F1680.000 E1.50772
G1 X115.776 Y110.380 E1.51544
G1 X116.243 Y110.172 E1.52316
G1 X116.744 Y110.065 E1.53088
G1 X117.256 Y110.065 E1.53860
G1 X117.757 Y110.172 E1.54632
G1 X118.224 Y110.380 E1.55403
G1 X118.638 Y110.681 E1.56175
G1 X118.981 Y111.061 E1.56947
G1 X119.237 Y111.504 E1.57719
G1 X119.395 Y111.991 E1.58491
G1 X119.448 Y112.500 E1.59263
G1 X119.395 Y113.009 E1.60035
G1 X119.237 Y113.496 E1.60807
G1 X118.981 Y113.939 E1.61579
G1 X118.638 Y114.319 E1.62351
G1 X118.224 Y114.620 E1.63123
G1 X117.757 Y114.828 E1.63895
G1 X117.256 Y114.935 E1.64666
G1 X116.744 Y114.935 E1.65438
G1 X116.243 Y114.828 E1.66210
G1 X115.776 Y114.620 E1.66982
G1 X115.362 Y114.319 E1.67754
G1 X115.019 Y113.939 E1.68526
G1 X114.763 Y113.496 E1.69298
G1 X114.605 Y113.009 E1.70070
G1 X114.552 Y112.500 E1.70842
G1 X114.605 Y111.991 E1.71614
G1 X114.763 Y111.504 E1.72386
G1 X114.990 Y111.112 E1.73068
G1 X114.713 Y110.838 F9000.000
G1 X115.108 Y110.399 F1680.000 E1.73960
G1 X115.586 Y110.051 E1.74851
G1 X116.126 Y109.811 E1.75743
G1 X116.704 Y109.688 E1.76634
G1 X117.296 Y109.688 E1.77525
G1 X117.874 Y109.811 E1.78417
G1 X118.414 Y110.051 E1.79308
G1 X118.892 Y110.399 E1.80200
G1 X119.287 Y110.838 E1.81091
G1 X119.583 Y111.350 E1.81983
G1 X119.765 Y111.912 E1.82874
G1 X119.827 Y112.500 E1.83765
G1 X119.765 Y113.088 E1.84657
G1 X119.583 Y113.650 E1.85548
G1 X119.287 Y114.162 E1.86440
G1 X118.892 Y114.601 E1.87331
G1 X118.414 Y114.949 E1.88223
G1 X117.874 Y115.189 E1.89114
G1 X117.296 Y115.312 E1.90005
G1 X116.704 Y115.312 E1.90897
G1 X116.126 Y115.189 E1.91788
G1 X115.586 Y114.949 E1.92680
G1 X115.108 Y114.601 E1.93571
G1 X114.713 Y114.162 E1.94462
G1 X114.417 Y113.650 E1.95354
G1 X114.235 Y113.088 E1.96245
G1 X114.173 Y112.500 E1.97137
G1 X114.235 Y111.912 E1.98028
G1 X114.417 Y111.350 E1.98920
G1 X114.683 Y110.889 E1.99722
G1 F1200.000 E0.49722
G92 E0
G1 X102.574 Y103.074 F9000.000
G1 F1200.000 E1.50000
G1 X127.426 Y103.074 F1680.000 E1.87480
G1 X127.426 Y121.926 E2.15912
G1 X102.574 Y121.926 E2.53392
G1 X102.574 Y103.133 E2.81734
G1 X102.197 Y102.697 F9000.000
G1 X127.803 Y102.697 F1680.000 E3.20351
G1 X127.803 Y122.303 E3.49920
G1 X102.197 Y122.303 E3.88537
G1 X102.197 Y102.756 E4.18016
G1 F1200.000 E2.68016
G92 E0
G1 X115.362 Y89.319 F9000.000
G1 F1200.000 E1.50000
G1 X115.019 Y88.939 F1680.000 E1.50772
G1 X114.763 Y88.496 E1.51544
G1 X114.605 Y88.009 E1.52316
G1 X114.552 Y87.500 E1.53088
G1 X114.605 Y86.991 E1.53860
G1 X114.763 Y86.504 E1.54632
G1 X115.019 Y86.061 E1.55403
G1 X115.362 Y85.681 E1.56175
G1 X115.776 Y85.380 E1.56947
G1 X116.243 Y85.172 E1.57719
G1 X116.744 Y85.065 E1.58491
G1 X117.256 Y85.065 E1.59263
G1 X117.757 Y85.172 E1.60035
G1 X118.224 Y85.380 E1.60807
G1 X118.638 Y85.681 E1.61579
G1 X118.981 Y86.061 E1.62351
G1 X119.237 Y86.504 E1.63123
G1 X119.395 Y86.991 E1.63895
G1 X119.448 Y87.500 E1.64666
G1 X119.395 Y88.009 E1.65438
G1 X119.237 Y88.496 E1.66210
G1 X118.981 Y88.939 E1.66982
G1 X118.638 Y89.319 E1.67754
G1 X118.224 Y89.620 E1.68526
G1 X117.757 Y89.828 E1.69298
G1 X117.256 Y89.935 E1.70070
G1 X116.744 Y89.935 E1.70842
G1 X116.243 Y89.828 E1.71614
G1 X115.776 Y89.620 E1.72386
G1 X115.410 Y89.354 E1.73068
G1 X115.108 Y89.601 F9000.000
G1 X114.713 Y89.162 F1680.000 E1.73960
G1 X114.417 Y88.650 E1.74851
G1 X114.235 Y88.088 E1.75743
G1 X114.173 Y87.500 E1.76634
G1 X114.235 Y86.912 E1.77525
G1 X114.417 Y86.350 E1.78417
G1 X114.713 Y85.838 E1.79308
G1 X115.108 Y85.399 E1.80200
G1 X115.586 Y85.052 E1.81091
G1 X116.126 Y84.811 E1.81983
G1 X116.704 Y84.688 E1.82874
G1 X117.296 Y84.688 E1.83765
G1 X117.874 Y84.811 E1.84657
G1 X118.414 Y85.052 E1.85548
G1 X118.892 Y85.399 E1.86440
G1 X119.287 Y85.838 E1.87331
G1 X119.583 Y86.350 E1.88223
G1 X119.765 Y86.912 E1.89114
G1 X119.827 Y87.500 E1.90005
G1 X119.765 Y88.088 E1.90897
G1 X119.583 Y88.650 E1.91788
G1 X119.287 Y89.162 E1.92680
G1 X118.892 Y89.601 E1.93571
G1 X118.414 Y89.949 E1.94462
G1 X117.874 Y90.189 E1.95354
G1 X117.296 Y90.312 E1.96245
G1 X116.704 Y90.312 E1.97137
G1 X116.126 Y90.189 E1.98028
G1 X115.586 Y89.949 E1.98919
G1 X115.156 Y89.636 E1.99722
G1 F1200.000 E0.49722
G92 E0
G1 X127.426 Y96.926 F9000.000
G1 F1200.000 E1.50000
G1 X102.574 Y96.926 F1680.000 E1.87480
G1 X102.574 Y78.074 E2.15912
G1 X127.426 Y78.074 E2.53392
G1 X127.426 Y96.867 E2.81734
G1 X127.803 Y97.303 F9000.000
G1 X102.197 Y97.303 F1680.000 E3.20351
G1 X102.197 Y77.697 E3.49920
G1 X127.803 Y77.697 E3.88537
G1 X127.803 Y97.244 E4.18016
G1 F1200.000 E2.68016
G92 E0
G1 X89.395 Y88.009 F9000.000
G1 F1200.000 E1.50000
G1 X89.237 Y88.496 F1680.000 E1.50772
G1 X88.981 Y88.939 E1.51544
G1 X88.638 Y89.319 E1.52316
G1 X88.224 Y89.620 E1.53088
G1 X87.757 Y89.828 E1.53860
G1 X87.256 Y89.935 E1.54632
G1 X86.744 Y89.935 E1.55403
G1 X86.243 Y89.828 E1.56175
G1 X85.776 Y89.620 E1.56947
G1 X85.362 Y89.319 E1.57719
G1 X85.019 Y88.939 E1.58491
G1 X84.763 Y88.496 E1.59263
G1 X84.605 Y88.009 E1.60035
G1 X84.552 Y87.500 E1.60807
G1 X84.605 Y86.991 E1.61579
G1 X84.763 Y86.504 E1.62351
G1 X85.019 Y86.061 E1.63123
G1 X85.362 Y85.681 E1.63895
G1 X85.776 Y85.380 E1.64666
G1 X86.243 Y85.172 E1.65438
G1 X86.744 Y85.065 E1.66210
G1 X87.256 Y85.065 E1.66982
G1 X87.757 Y85.172 E1.67754
G1 X88.224 Y85.380 E1.68526
G1 X88.638 Y85.681 E1.69298
G1 X88.981 Y86.061 E1.70070
G1 X89.237 Y86.504 E1.70842
G1 X89.395 Y86.991 E1.71614
G1 X89.448 Y87.500 E1.72386
G1 X89.401 Y87.950 E1.73068
G1 X89.765 Y88.088 F9000.000
G1 X89.583 Y88.650 F1680.000 E1.73960
G1 X89.287 Y89.162 E1.74851
G1 X88.892 Y89.601 E1.75743
G1 X88.414 Y89.949 E1.76634
G1 X87.874 Y90.189 E1.77525
G1 X87.296 Y90.312 E1.78417
G1 X86.704 Y90.312 E1.79308
G1 X86.126 Y90.189 E1.80200
G1 X85.586 Y89.949 E1.81091
G1 X85.108 Y89.601 E1.81983
G1 X84.713 Y89.162 E1.82874
G1 X84.417 Y88.650 E1.83765
G1 X84.235 Y88.088 E1.84657
G1 X84.173 Y87.500 E1.85548
G1 X84.235 Y86.912 E1.86440
G1 X84.417 Y86.350 E1.87331
G1 X84.713 Y85.838 E1.88223
G1 X85.108 Y85.399 E1.89114
G1 X85.586 Y85.052 E1.90005
G1 X86.126 Y84.811 E1.90897
G1 X86.704 Y84.688 E1.91788
G1 X87.296 Y84.688 E1.92680
G1 X87.874 Y84.811 E1.93571
G1 X88.414 Y85.052 E1.94462
G1 X88.892 Y85.399 E1.95354
G1 X89.287 Y85.838 E1.96245
G1 X89.583 Y86.350 E1.97137
G1 X89.765 Y86.912 E1.98028
G1 X89.827 Y87.500 E1.98919
G1 X89.772 Y88.029 E1.99722
G1 F1200.000 E0.49722
G92 E0
G1 X97.426 Y96.926 F9000.000
G1 F1200.000 E1.50000
G1 X72.574 Y96.926 F1680.000 E1.87480
G1 X72.574 Y78.074 E2.15912
G1 X97.426 Y78.074 E2.53392
G1 X97.426 Y96.867 E2.81734
G1 X97.803 Y97.303 F9000.000
G1 X72.197 Y97.303 F1680.000 E3.20351
G1 X72.197 Y77.697 E3.49920
G1 X97.803 Y77.697 E3.88537
G1 X97.803 Y97.244 E4.18016
G1 F1200.000 E2.68016
G92 E0
G1 X88.224 Y110.380 F9000.000
G1 F1200.000 E1.50000
G1 X88.638 Y110.681 F1680.000 E1.50772
G1 X88.981 Y111.061 E1.51544
G1 X89.237 Y111.504 E1.52316
G1 X89.395 Y111.991 E1.53088
G1 X89.448 Y112.500 E1.53860
G1 X89.395 Y113.009 E1.54632
G1 X89.237 Y113.496 E1.55403
G1 X88.981 Y113.939 E1.56175
G1 X88.638 Y114.319 E1.56947
G1 X88.224 Y114.620 E1.57719
G1 X87.757 Y114.828 E1.58491
G1 X87.256 Y114.935 E1.59263
G1 X86.744 Y114.935 E1.60035
G1 X86.243 Y114.828 E1.60807
G1 X85.776 Y114.620 E1.61579
G1 X85.362 Y114.319 E1.62351
G1 X85.019 Y113.939 E1.63123
G1 X84.763 Y113.496 E1.63895
G1 X84.605 Y113.009 E1.64666
G1 X84.552 Y112.500 E1.65438
G1 X84.605 Y111.991 E1.66210
G1 X84.763 Y111.504 E1.66982
G1 X85.019 Y111.061 E1.67754
G1 X85.362 Y110.681 E1.68526
G1 X85.776 Y110.380 E1.69298
G1 X86.243 Y110.172 E1.70070
G1 X86.744 Y110.065 E1.70842
G1 X87.256 Y110.065 E1.71614
G1 X87.757 Y110.172 E1.72386
G1 X88.170 Y110.356 E1.73068
G1 X88.414 Y110.051 F9000.000
G1 X88.892 Y110.399 F1680.000 E1.73960
G1 X89.287 Y110.838 E1.74851
G1 X89.583 Y111.350 E1.75743
G1 X89.765 Y111.912 E1.76634
G1 X89.827 Y112.500 E1.77525
G1 X89.765 Y113.088 E1.78417
G1 X89.583 Y113.650 E1.79308
G1 X89.287 Y114.162 E1.80200
G1 X88.892 Y114.601 E1.81091
G1 X88.414 Y114.949 E1.81983
G1 X87.874 Y115.189 E1.82874
G1 X87.296 Y115.312 E1.83765
G1 X86.704 Y115.312 E1.84657
G1 X86.126 Y115.189 E1.85548
G1 X85.586 Y114.949 E1.86440
G1 X85.108 Y114.601 E1.87331
G1 X84.713 Y114.162 E1.88223
G1 X84.417 Y113.650 E1.89114
G1 X84.235 Y113.088 E1.90005
G1 X84.173 Y112.500 E1.90897
G1 X84.235 Y111.912 E1.91788
G1 X84.417 Y111.350 E1.92680
G1 X84.713 Y110.838 E1.93571
G1 X85.108 Y110.399 E1.94462
G1 X85.586 Y110.051 E1.95354
G1 X86.126 Y109.811 E1.96245
G1 X86.704 Y109.688 E1.97137
G1 X87.296 Y109.688 E1.98028
G1 X87.874 Y109.811 E1.98920
G1 X88.360 Y110.027 E1.99722
G1 F1200.000 E0.49722
G92 E0
G1 X97.426 Y103.074 F9000.000
G1 F1200.000 E1.50000
G1 X97.426 Y121.926 F1680.000 E1.78431
G1 X72.574 Y121.926 E2.15912
G1 X72.574 Y103.074 E2.44343
G1 X97.367 Y103.074 E2.81734
G1 X97.803 Y102.697 F9000.000
G1 X97.803 Y122.303 F1680.000 E3.11303
G1 X72.197 Y122.303 E3.49920
G1 X72.197 Y102.697 E3.79488
G1 X97.744 Y102.697 E4.18016
G1 X96.800 Y103.339 F9000.000
G1 X97.161 Y103.700 F2520.000 E4.18795
G1 X97.161 Y104.237 F9000.000
G1 X96.263 Y103.339 F2520.000 E4.20734
G1 X95.725 Y103.339 F9000.000
G1 X97.161 Y104.775 F2520.000 E4.23834
G1 X97.161 Y105.312 F9000.000
G1 X95.188 Y103.339 F2520.000 E4.28095
G1 X94.650 Y103.339 F9000.000
G1 X97.161 Y105.850 F2520.000 E4.33517
G1 X97.161 Y106.387 F9000.000
G1 X94.113 Y103.339 F2520.000 E4.40099
G1 X93.575 Y103.339 F9000.000
G1 X97.161 Y106.925 F2520.000 E4.47843
G1 X97.161 Y107.462 F9000.000
G1 X93.038 Y103.339 F2520.000 E4.56747
G1 X92.501 Y103.339 F9000.000
G1 X97.161 Y107.999 F2520.000 E4.66811
G1 X97.161 Y108.537 F9000.000
G1 X91.963 Y103.339 F2520.000 E4.78037
G1 X91.426 Y103.339 F9000.000
G1 X97.161 Y109.074 F2520.000 E4.90423
G1 X97.161 Y109.612 F9000.000
G1 X90.888 Y103.339 F2520.000 E5.03970
G1 X90.351 Y103.339 F9000.000
G1 X97.161 Y110.149 F2520.000 E5.18677
G1 X97.161 Y110.687 F9000.000
G1 X89.814 Y103.339 F2520.000 E5.34546
G1 X89.275 Y103.340 F9000.000
G1 X97.160 Y111.225 F2520.000 E5.51575
G1 X97.160 Y111.762 F9000.000
G1 X88.738 Y103.340 F2520.000 E5.69765
G1 X88.201 Y103.340 F9000.000
G1 X97.160 Y112.299 F2520.000 E5.89116
G1 X97.160 Y112.837 F9000.000
G1 X87.663 Y103.340 F2520.000 E6.09627
G1 X87.126 Y103.340 F9000.000
G1 X97.160 Y113.374 F2520.000 E6.31299
G1 X97.160 Y113.912 F9000.000
G1 X86.588 Y103.340 F2520.000 E6.54132
G1 X86.051 Y103.340 F9000.000
G1 X97.160 Y114.449 F2520.000 E6.78126
G1 X97.160 Y114.987 F9000.000
G1 X85.513 Y103.340 F2520.000 E7.03280
G1 X84.976 Y103.340 F9000.000
G1 X97.160 Y115.524 F2520.000 E7.29596
G1 X97.160 Y116.061 F9000.000
G1 X84.439 Y103.340 F2520.000 E7.57071
G1 X83.901 Y103.340 F9000.000
G1 X97.160 Y116.599 F2520.000 E7.85708
G1 X97.160 Y117.136 F9000.000
G1 X83.364 Y103.340 F2520.000 E8.15506
G1 X82.826 Y103.340 F9000.000
G1 X97.160 Y117.674 F2520.000 E8.46464
G1 X97.160 Y118.211 F9000.000
G1 X89.522 Y110.573 F2520.000 E8.62961
G1 X88.969 Y110.019 F9000.000
G1 X82.289 Y103.340 F2520.000 E8.77387
G1 X81.751 Y103.340 F9000.000
G1 X87.939 Y109.528 F2520.000 E8.90752
G1 X87.297 Y109.423 F9000.000
G1 X81.214 Y103.339 F2520.000 E9.03890
G1 X80.676 Y103.340 F9000.000
G1 X86.763 Y109.426 F2520.000 E9.17035
G1 X86.319 Y109.520 F9000.000
G1 X80.139 Y103.340 F2520.000 E9.30383
G1 X79.602 Y103.339 F9000.000
G1 X85.916 Y109.653 F2520.000 E9.44020
G1 X85.544 Y109.819 F9000.000
G1 X79.064 Y103.340 F2520.000 E9.58014
G1 X78.527 Y103.340 F9000.000
G1 X85.227 Y110.040 F2520.000 E9.72484
G1 X84.925 Y110.275 F9000.000
G1 X77.989 Y103.340 F2520.000 E9.87463
G1 X77.452 Y103.340 F9000.000
G1 X84.670 Y110.558 F2520.000 E10.03052
G1 X84.439 Y110.864 F9000.000
G1 X76.914 Y103.340 F2520.000 E10.19303
G1 X76.377 Y103.340 F9000.000
G1 X84.242 Y111.204 F2520.000 E10.36289
G1 X84.091 Y111.590 F9000.000
G1 X75.840 Y103.339 F2520.000 E10.54109
G1 X75.302 Y103.340 F9000.000
G1 X83.969 Y112.006 F2520.000 E10.72827
G1 X83.918 Y112.493 F9000.000
G1 X74.765 Y103.340 F2520.000 E10.92596
G1 X74.227 Y103.339 F9000.000
G1 X83.953 Y113.065 F2520.000 E11.13601
G1 X84.142 Y113.792 F9000.000
G1 X73.690 Y103.340 F2520.000 E11.36176
G1 X73.152 Y103.340 F9000.000
G1 X91.473 Y121.660 F2520.000 E11.75744
G1 X90.936 Y121.660 F9000.000
G1 X72.840 Y103.564 F2520.000 E12.14828
G1 X72.839 Y104.102 F9000.000
G1 X90.398 Y121.661 F2520.000 E12.52750
G1 X89.861 Y121.661 F9000.000
G1 X72.839 Y104.639 F2520.000 E12.89513
G1 X72.840 Y105.177 F9000.000
G1 X89.323 Y121.660 F2520.000 E13.25114
G1 X88.786 Y121.661 F9000.000
G1 X72.839 Y105.714 F2520.000 E13.59554
G1 X72.839 Y106.251 F9000.000
G1 X88.249 Y121.661 F2520.000 E13.92834
G1 X87.711 Y121.660 F9000.000
G1 X72.840 Y106.789 F2520.000 E14.24953
G1 X72.839 Y107.326 F9000.000
G1 X87.174 Y121.661 F2520.000 E14.55911
G1 X86.636 Y121.661 F9000.000
G1 X72.839 Y107.864 F2520.000 E14.85709
G1 X72.840 Y108.401 F9000.000
G1 X86.099 Y121.660 F2520.000 E15.14345
G1 X85.561 Y121.661 F9000.000
G1 X72.839 Y108.939 F2520.000 E15.41821
G1 X72.839 Y109.476 F9000.000
G1 X85.024 Y121.661 F2520.000 E15.68136
G1 X84.486 Y121.660 F9000.000
G1 X72.840 Y110.014 F2520.000 E15.93291
G1 X72.839 Y110.551 F9000.000
G1 X83.949 Y121.661 F2520.000 E16.17284
G1 X83.412 Y121.661 F9000.000
G1 X72.839 Y111.088 F2520.000 E16.40118
G1 X72.840 Y111.626 F9000.000
G1 X82.874 Y121.660 F2520.000 E16.61790
G1 X82.337 Y121.661 F9000.000
G1 X72.839 Y112.163 F2520.000 E16.82301
