; generated by Slic3r 0.7.2b on 2012-05-06 at 10:25:01

; layer_height = 0.25
; perimeters = 2
; solid_layers = 3
; fill_density = 0.50
; nozzle_diameter = 0.35
; filament_diameter = 2.85
; extrusion_multiplier = 1
; perimeter_speed = 40
; infill_speed = 60
; travel_speed = 150
; extrusion_width_ratio = 0
; scale = 1
; single wall width = 0.39mm

M190 S110 
M104 S240 
G28                 
G92 E0 
G1 E3 F1200
G1 E2 F1200 
G92 E0  
M109 S240 
G90 
G21 
G92 E0 
M82 
G1 Z0.250 F9000.000
G1 X82.505 Y61.040
G1 F1200.000 E1.50000
G1 X82.685 Y60.860 F1680.000 E1.50384
G1 X83.065 Y60.520 E1.51153
G1 X83.685 Y60.080 E1.52300
G1 X83.905 Y59.950 E1.52685
G1 X84.365 Y59.720 E1.53461
G1 X84.835 Y59.530 E1.54225
G1 X85.325 Y59.380 E1.54998
G1 X85.575 Y59.320 E1.55386
G1 X86.325 Y59.210 E1.56529
G1 X86.835 Y59.190 E1.57299
G1 X92.985 Y59.210 E1.66574
G1 X93.255 Y59.240 E1.66984
G1 X93.775 Y59.340 E1.67782
G1 X94.295 Y59.480 E1.68594
G1 X94.805 Y59.670 E1.69415
G1 X95.045 Y59.780 E1.69813
G1 X95.525 Y60.040 E1.70637
G1 X110.915 Y70.200 E1.98449
G1 X111.355 Y70.550 E1.99297
G1 X111.755 Y70.940 E2.00139
G1 X112.285 Y71.580 E2.01393
G1 X118.455 Y82.230 E2.19955
G1 X118.575 Y82.470 E2.20360
G1 X118.865 Y83.230 E2.21587
G1 X118.995 Y83.750 E2.22395
G1 X119.085 Y84.290 E2.23221
G1 X119.125 Y84.830 E2.24037
G1 X119.115 Y85.370 E2.24852
G1 X113.075 Y124.450 E2.84490
G1 X112.925 Y124.960 E2.85292
G1 X112.735 Y125.450 E2.86085
G1 X112.365 Y126.150 E2.87279
G1 X112.225 Y126.370 E2.87672
G1 X111.915 Y126.790 E2.88459
G1 X111.745 Y126.990 E2.88855
G1 X111.185 Y127.550 E2.90050
G1 X95.965 Y139.660 E3.19383
G1 X95.285 Y140.090 E3.20597
G1 X94.805 Y140.320 E3.21399
G1 X94.295 Y140.510 E3.22220
G1 X93.775 Y140.650 E3.23032
G1 X93.245 Y140.750 E3.23846
G1 X92.985 Y140.780 E3.24241
G1 X92.445 Y140.800 E3.25055
G1 X86.325 Y140.780 E3.34285
G1 X85.575 Y140.670 E3.35429
G1 X85.075 Y140.540 E3.36208
G1 X84.595 Y140.370 E3.36976
G1 X84.135 Y140.160 E3.37738
G1 X83.905 Y140.040 E3.38130
G1 X83.685 Y139.910 E3.38515
G1 X83.065 Y139.470 E3.39662
G1 X82.685 Y139.130 E3.40431
G1 X82.505 Y138.950 E3.40815
G1 X82.165 Y138.570 E3.41584
G1 X81.725 Y137.950 E3.42730
G1 X81.595 Y137.730 E3.43116
G1 X81.365 Y137.270 E3.43891
G1 X81.175 Y136.800 E3.44656
G1 X81.025 Y136.310 E3.45429
G1 X80.965 Y136.060 E3.45816
G1 X80.855 Y135.310 E3.46960
G1 X80.855 Y64.680 E4.53481
G1 X80.965 Y63.930 E4.54624
G1 X81.095 Y63.430 E4.55403
G1 X81.265 Y62.950 E4.56171
G1 X81.475 Y62.490 E4.56934
G1 X81.595 Y62.260 E4.57325
G1 X81.725 Y62.040 E4.57710
G1 X82.165 Y61.420 E4.58857
G1 X82.466 Y61.084 E4.59537
G1 F1200.000 E3.09537
G92 E0
G1 X97.431 Y77.701 F9000.000
G1 F1200.000 E1.50000
G1 X105.859 Y77.701 F1680.000 E1.62710
G1 X110.073 Y85.000 E1.75421
G1 X105.859 Y92.299 E1.88131
G1 X97.431 Y92.299 E2.00841
G1 X93.217 Y85.000 E2.13551
G1 X97.402 Y77.753 E2.26172
G1 X97.214 Y77.324 F9000.000
G1 X106.076 Y77.324 F1680.000 E2.39539
G1 X110.508 Y85.000 E2.52906
G1 X106.076 Y92.676 E2.66272
G1 X97.214 Y92.676 E2.79639
G1 X92.782 Y85.000 E2.93006
G1 X97.184 Y77.376 E3.06283
G1 F1200.000 E1.56283
G92 E0
G1 X96.040 Y75.574 F9000.000
G1 F1200.000 E1.50000
G1 X96.122 Y75.433 F1680.000 E1.50246
G1 X107.169 Y75.433 E1.66906
G1 X112.692 Y85.000 E1.83567
G1 X107.169 Y94.567 E2.00228
G1 X95.971 Y94.567 E2.17116
G1 X95.971 Y94.576 E2.17129
G1 X92.071 Y94.576 E2.23011
G1 X92.071 Y105.571 E2.39593
G1 X102.644 Y105.629 E2.55539
G1 X103.605 Y105.781 E2.57006
G1 X104.558 Y106.036 E2.58494
G1 X105.479 Y106.390 E2.59982
G1 X106.358 Y106.838 E2.61470
G1 X106.658 Y107.033 E2.62010
G1 X106.265 Y107.426 E2.62849
G1 X104.950 Y107.426 E2.64832
G1 X104.202 Y107.130 E2.66045
G1 X103.196 Y106.871 E2.67612
G1 X102.165 Y106.741 E2.69179
G1 X101.125 Y106.741 E2.70747
G1 X100.094 Y106.871 E2.72314
G1 X99.088 Y107.130 E2.73881
G1 X98.122 Y107.512 E2.75449
G1 X97.211 Y108.013 E2.77016
G1 X96.370 Y108.624 E2.78583
G1 X95.571 Y109.374 E2.80237
G1 X95.571 Y120.626 E2.97206
G1 X96.370 Y121.376 E2.98859
G1 X97.211 Y121.987 E3.00426
G1 X98.122 Y122.488 E3.01994
G1 X99.088 Y122.870 E3.03561
G1 X100.094 Y123.129 E3.05128
G1 X101.125 Y123.259 E3.06696
G1 X102.165 Y123.259 E3.08263
G1 X103.196 Y123.129 E3.09830
G1 X104.202 Y122.870 E3.11398
G1 X104.950 Y122.574 E3.12611
G1 X106.265 Y122.574 E3.14594
G1 X106.658 Y122.967 E3.15432
G1 X106.358 Y123.162 E3.15973
G1 X105.479 Y123.610 E3.17461
G1 X104.558 Y123.964 E3.18948
G1 X103.605 Y124.219 E3.20436
G1 X102.630 Y124.373 E3.21924
G1 X101.630 Y124.426 E3.23435
G1 X92.071 Y124.426 E3.37851
G1 X92.071 Y134.426 E3.52933
G1 X87.219 Y134.426 E3.60250
G1 X87.219 Y65.574 E4.64089
G1 X92.071 Y65.574 E4.71406
G1 X92.071 Y75.574 E4.86488
G1 X95.981 Y75.574 E4.92385
G1 X95.822 Y75.197 F9000.000
G1 X95.904 Y75.056 F1680.000 E4.92631
G1 X107.386 Y75.056 E5.09948
G1 X113.127 Y85.000 E5.27265
G1 X107.386 Y94.944 E5.44582
G1 X96.348 Y94.944 E5.61230
G1 X96.348 Y94.953 E5.61243
G1 X92.448 Y94.953 E5.67125
G1 X92.448 Y105.196 E5.82573
G1 X102.674 Y105.252 E5.97997
G1 X103.683 Y105.412 E5.99537
G1 X104.674 Y105.677 E6.01085
G1 X105.632 Y106.045 E6.02632
G1 X106.546 Y106.511 E6.04179
G1 X107.254 Y106.970 E6.05452
G1 X106.421 Y107.803 E6.07228
G1 X104.878 Y107.803 E6.09555
G1 X104.085 Y107.489 E6.10840
G1 X103.125 Y107.242 E6.12336
G1 X102.141 Y107.118 E6.13832
G1 X101.149 Y107.118 E6.15328
G1 X100.165 Y107.242 E6.16824
G1 X99.205 Y107.489 E6.18319
G1 X98.282 Y107.854 E6.19815
G1 X97.413 Y108.332 E6.21311
G1 X96.611 Y108.915 E6.22807
G1 X95.948 Y109.537 E6.24178
G1 X95.948 Y120.463 E6.40655
G1 X96.611 Y121.085 E6.42027
G1 X97.413 Y121.668 E6.43523
G1 X98.282 Y122.146 E6.45018
G1 X99.205 Y122.511 E6.46514
G1 X100.165 Y122.758 E6.48010
G1 X101.149 Y122.882 E6.49506
G1 X102.141 Y122.882 E6.51002
G1 X103.125 Y122.758 E6.52497
G1 X104.085 Y122.511 E6.53993
G1 X104.878 Y122.197 E6.55279
G1 X106.421 Y122.197 E6.57606
G1 X107.254 Y123.030 E6.59382
G1 X106.546 Y123.489 E6.60654
G1 X105.632 Y123.955 E6.62202
G1 X104.674 Y124.323 E6.63749
G1 X103.683 Y124.588 E6.65296
G1 X102.670 Y124.749 E6.66844
G1 X101.640 Y124.803 E6.68399
G1 X92.448 Y124.803 E6.82262
G1 X92.448 Y134.803 E6.97344
G1 X86.842 Y134.803 E7.05798
G1 X86.842 Y65.197 E8.10774
G1 X92.448 Y65.197 E8.19228
G1 X92.448 Y75.197 E8.34310
G1 X95.763 Y75.197 E8.39310
G1 X95.496 Y75.839 F9000.000
G1 X96.964 Y77.307 F2520.000 E8.42471
G1 X97.252 Y77.059 F9000.000
G1 X96.032 Y75.840 F2520.000 E8.45097
G1 X96.427 Y75.699 F9000.000
G1 X97.788 Y77.059 F2520.000 E8.48027
G1 X98.325 Y77.059 F9000.000
G1 X96.964 Y75.698 F2520.000 E8.50956
G1 X97.500 Y75.698 F9000.000
G1 X98.861 Y77.059 F2520.000 E8.53886
G1 X99.397 Y77.059 F9000.000
G1 X98.036 Y75.698 F2520.000 E8.56816
G1 X98.573 Y75.698 F9000.000
G1 X99.934 Y77.059 F2520.000 E8.59746
G1 X100.470 Y77.059 F9000.000
G1 X99.110 Y75.698 F2520.000 E8.62676
G1 X99.646 Y75.698 F9000.000
G1 X101.006 Y77.059 F2520.000 E8.65606
G1 X101.543 Y77.059 F9000.000
G1 X100.182 Y75.699 F2520.000 E8.68536
G1 X100.719 Y75.698 F9000.000
G1 X102.080 Y77.059 F2520.000 E8.71465
G1 X102.616 Y77.059 F9000.000
G1 X101.255 Y75.698 F2520.000 E8.74395
G1 X101.791 Y75.698 F9000.000
G1 X103.152 Y77.059 F2520.000 E8.77325
G1 X103.688 Y77.059 F9000.000
G1 X102.327 Y75.699 F2520.000 E8.80255
G1 X102.864 Y75.698 F9000.000
G1 X104.225 Y77.059 F2520.000 E8.83185
G1 X104.761 Y77.059 F9000.000
G1 X103.400 Y75.698 F2520.000 E8.86115
G1 X103.937 Y75.698 F9000.000
G1 X105.297 Y77.059 F2520.000 E8.89045
G1 X105.833 Y77.059 F9000.000
G1 X104.473 Y75.699 F2520.000 E8.91975
G1 X105.010 Y75.698 F9000.000
G1 X106.370 Y77.059 F2520.000 E8.94905
G1 X106.231 Y76.920 F9000.000
G1 X109.562 Y80.251 F2520.000 E9.02077
G1 X108.429 Y80.727 F9000.000
G1 X111.760 Y84.058 F2520.000 E9.09250
G1 X110.627 Y84.534 F9000.000
G1 X111.942 Y85.850 F2520.000 E9.12081
G1 X111.746 Y86.189 F9000.000
G1 X110.690 Y85.134 F2520.000 E9.14355
G1 X110.494 Y85.473 F9000.000
G1 X111.550 Y86.529 F2520.000 E9.16628
G1 X111.353 Y86.870 F9000.000
G1 X110.297 Y85.814 F2520.000 E9.18902
G1 X110.101 Y86.154 F9000.000
G1 X111.157 Y87.210 F2520.000 E9.21175
G1 X110.961 Y87.549 F9000.000
G1 X109.905 Y86.494 F2520.000 E9.23449
G1 X109.709 Y86.833 F9000.000
G1 X110.765 Y87.889 F2520.000 E9.25722
G1 X110.568 Y88.230 F9000.000
G1 X109.512 Y87.174 F2520.000 E9.27996
G1 X109.316 Y87.514 F9000.000
G1 X110.372 Y88.570 F2520.000 E9.30269
G1 X110.176 Y88.910 F9000.000
G1 X109.120 Y87.854 F2520.000 E9.32542
G1 X108.923 Y88.194 F9000.000
G1 X109.979 Y89.250 F2520.000 E9.34816
G1 X109.783 Y89.590 F9000.000
G1 X108.727 Y88.534 F2520.000 E9.37089
G1 X108.531 Y88.874 F9000.000
G1 X109.587 Y89.930 F2520.000 E9.39363
G1 X109.390 Y90.270 F9000.000
G1 X108.334 Y89.214 F2520.000 E9.41636
G1 X108.138 Y89.554 F9000.000
G1 X109.194 Y90.610 F2520.000 E9.43910
G1 X108.997 Y90.950 F9000.000
G1 X107.942 Y89.894 F2520.000 E9.46183
G1 X107.745 Y90.234 F9000.000
G1 X108.801 Y91.290 F2520.000 E9.48457
G1 X108.605 Y91.630 F9000.000
G1 X107.549 Y90.574 F2520.000 E9.50730
G1 X107.352 Y90.915 F9000.000
G1 X108.408 Y91.970 F2520.000 E9.53004
G1 X108.212 Y92.310 F9000.000
G1 X107.156 Y91.254 F2520.000 E9.55277
G1 X106.960 Y91.594 F9000.000
G1 X108.016 Y92.650 F2520.000 E9.57551
G1 X107.819 Y92.991 F9000.000
G1 X106.763 Y91.935 F2520.000 E9.59824
G1 X106.567 Y92.275 F9000.000
G1 X107.623 Y93.331 F2520.000 E9.62098
G1 X107.427 Y93.670 F9000.000
G1 X106.371 Y92.615 F2520.000 E9.64371
G1 X106.161 Y92.941 F9000.000
G1 X107.231 Y94.010 F2520.000 E9.66674
G1 X106.985 Y94.302 F9000.000
G1 X105.624 Y92.941 F2520.000 E9.69604
G1 X105.088 Y92.941 F9000.000
G1 X106.449 Y94.302 F2520.000 E9.72534
G1 X105.913 Y94.302 F9000.000
G1 X104.552 Y92.941 F2520.000 E9.75463
G1 X104.016 Y92.941 F9000.000
G1 X105.377 Y94.301 F2520.000 E9.78393
G1 X104.840 Y94.302 F9000.000
G1 X103.479 Y92.941 F2520.000 E9.81323
G1 X102.943 Y92.941 F9000.000
G1 X104.304 Y94.302 F2520.000 E9.84253
G1 X103.767 Y94.302 F9000.000
G1 X102.407 Y92.941 F2520.000 E9.87183
G1 X101.870 Y92.941 F9000.000
G1 X103.231 Y94.301 F2520.000 E9.90112
G1 X102.694 Y94.302 F9000.000
G1 X101.334 Y92.941 F2520.000 E9.93042
G1 X100.797 Y92.941 F9000.000
G1 X102.158 Y94.302 F2520.000 E9.95972
G1 X101.622 Y94.301 F9000.000
G1 X100.261 Y92.941 F2520.000 E9.98902
G1 X99.724 Y92.941 F9000.000
G1 X101.085 Y94.302 F2520.000 E10.01832
G1 X100.549 Y94.302 F9000.000
G1 X99.188 Y92.941 F2520.000 E10.04761
G1 X98.652 Y92.941 F9000.000
G1 X100.013 Y94.302 F2520.000 E10.07691
G1 X99.477 Y94.301 F9000.000
G1 X98.116 Y92.941 F2520.000 E10.10621
G1 X97.579 Y92.941 F9000.000
G1 X98.940 Y94.302 F2520.000 E10.13551
G1 X98.403 Y94.302 F9000.000
G1 X97.043 Y92.941 F2520.000 E10.16481
G1 X96.891 Y92.789 F9000.000
G1 X87.484 Y83.383 F2520.000 E10.36734
G1 X87.484 Y82.847 F9000.000
G1 X96.158 Y91.520 F2520.000 E10.55410
G1 X95.426 Y90.251 F9000.000
G1 X87.485 Y82.310 F2520.000 E10.72508
G1 X87.485 Y81.773 F9000.000
G1 X94.693 Y88.982 F2520.000 E10.88028
G1 X93.960 Y87.713 F9000.000
G1 X87.484 Y81.237 F2520.000 E11.01971
G1 X87.484 Y80.701 F9000.000
G1 X93.227 Y86.444 F2520.000 E11.14337
G1 X92.495 Y85.175 F9000.000
G1 X87.485 Y80.164 F2520.000 E11.25125
G1 X87.484 Y79.628 F9000.000
G1 X92.645 Y84.788 F2520.000 E11.36235
G1 X92.841 Y84.449 F9000.000
G1 X87.484 Y79.092 F2520.000 E11.47769
G1 X87.485 Y78.555 F9000.000
G1 X93.038 Y84.108 F2520.000 E11.59725
G1 X93.234 Y83.768 F9000.000
G1 X87.485 Y78.019 F2520.000 E11.72104
G1 X87.484 Y77.483 F9000.000
G1 X93.430 Y83.428 F2520.000 E11.84906
G1 X93.626 Y83.088 F9000.000
G1 X87.484 Y76.947 F2520.000 E11.98130
G1 X87.485 Y76.410 F9000.000
G1 X93.823 Y82.748 F2520.000 E12.11777
G1 X94.019 Y82.408 F9000.000
G1 X87.485 Y75.873 F2520.000 E12.25847
G1 X87.484 Y75.337 F9000.000
G1 X94.215 Y82.068 F2520.000 E12.40339
G1 X94.412 Y81.728 F9000.000
G1 X87.484 Y74.801 F2520.000 E12.55254
G1 X87.485 Y74.264 F9000.000
G1 X94.608 Y81.388 F2520.000 E12.70592
G1 X94.805 Y81.048 F9000.000
G1 X87.485 Y73.728 F2520.000 E12.86352
G1 X87.484 Y73.192 F9000.000
G1 X95.001 Y80.708 F2520.000 E13.02535
G1 X95.197 Y80.368 F9000.000
G1 X87.484 Y72.656 F2520.000 E13.19141
G1 X87.485 Y72.119 F9000.000
G1 X95.394 Y80.028 F2520.000 E13.36170
G1 X95.590 Y79.688 F9000.000
G1 X91.741 Y75.840 F2520.000 E13.44456
G1 X91.805 Y75.904 F9000.000
G1 X87.484 Y71.583 F2520.000 E13.53759
G1 X87.484 Y71.046 F9000.000
G1 X91.805 Y75.367 F2520.000 E13.63063
G1 X91.806 Y74.831 F9000.000
G1 X87.485 Y70.510 F2520.000 E13.72366
G1 X87.485 Y69.973 F9000.000
G1 X91.806 Y74.294 F2520.000 E13.81670
G1 X91.805 Y73.758 F9000.000
G1 X87.484 Y69.437 F2520.000 E13.90973
G1 X87.484 Y68.901 F9000.000
G1 X91.805 Y73.222 F2520.000 E14.00277
G1 X91.806 Y72.685 F9000.000
G1 X87.485 Y68.364 F2520.000 E14.09580
G1 X87.485 Y67.828 F9000.000
G1 X91.806 Y72.149 F2520.000 E14.18883
G1 X91.805 Y71.613 F9000.000
G1 X87.484 Y67.292 F2520.000 E14.28187
G1 X87.484 Y66.756 F9000.000
G1 X91.805 Y71.077 F2520.000 E14.37490
G1 X91.806 Y70.540 F9000.000
G1 X87.485 Y66.219 F2520.000 E14.46794
G1 X87.641 Y65.839 F9000.000
G1 X91.806 Y70.004 F2520.000 E14.55759
G1 X91.805 Y69.467 F9000.000
G1 X88.178 Y65.840 F2520.000 E14.63570
G1 X88.714 Y65.839 F9000.000
G1 X91.806 Y68.930 F2520.000 E14.70226
G1 X91.806 Y68.394 F9000.000
G1 X89.251 Y65.839 F2520.000 E14.75727
G1 X89.787 Y65.840 F9000.000
G1 X91.805 Y67.858 F2520.000 E14.80073
G1 X91.805 Y67.322 F9000.000
G1 X90.323 Y65.840 F2520.000 E14.83265
G1 X90.860 Y65.839 F9000.000
G1 X91.806 Y66.785 F2520.000 E14.85301
G1 X91.806 Y66.249 F9000.000
G1 X91.396 Y65.839 F2520.000 E14.86183
G1 F1200.000 E13.36183
G92 E0
G1 X92.278 Y75.840 F9000.000
G1 F1200.000 E1.50000
G1 X95.786 Y79.348 F2520.000 E1.57554
G1 X95.983 Y79.007 F9000.000
G1 X92.814 Y75.839 F2520.000 E1.64375
G1 X93.351 Y75.839 F9000.000
G1 X96.179 Y78.668 F2520.000 E1.70464
G1 X96.375 Y78.328 F9000.000
G1 X93.887 Y75.840 F2520.000 E1.75822
G1 X94.423 Y75.840 F9000.000
G1 X96.571 Y77.988 F2520.000 E1.80447
G1 X96.768 Y77.647 F9000.000
G1 X94.960 Y75.839 F2520.000 E1.84340
G1 F1200.000 E0.34340
G92 E0
G1 X105.546 Y75.698 F9000.000
G1 F1200.000 E1.50000
G1 X108.830 Y78.982 F2520.000 E1.57070
G1 X107.696 Y79.458 F9000.000
G1 X111.027 Y82.789 F2520.000 E1.64243
G1 X109.894 Y83.265 F9000.000
G1 X112.138 Y85.510 F2520.000 E1.69075
G1 X112.335 Y85.169 F9000.000
G1 X109.162 Y81.996 F2520.000 E1.75907
G1 X110.295 Y81.521 F9000.000
G1 X106.963 Y78.189 F2520.000 E1.83079
G1 X108.097 Y77.713 F9000.000
G1 X106.082 Y75.698 F2520.000 E1.87417
G1 X106.619 Y75.698 F9000.000
G1 X107.364 Y76.444 F2520.000 E1.89023
G1 F1200.000 E0.39023
G92 E0
G1 X97.867 Y94.302 F9000.000
G1 F1200.000 E1.50000
G1 X87.485 Y83.919 F2520.000 E1.72355
G1 X87.485 Y84.455 F9000.000
G1 X97.331 Y94.301 F2520.000 E1.93555
G1 X96.794 Y94.302 F9000.000
G1 X87.484 Y84.992 F2520.000 E2.13600
G1 X87.484 Y85.528 F9000.000
G1 X96.258 Y94.302 F2520.000 E2.32490
G1 X95.722 Y94.302 F9000.000
G1 X87.485 Y86.064 F2520.000 E2.50225
G1 X87.485 Y86.600 F9000.000
G1 X95.194 Y94.310 F2520.000 E2.66825
G1 X94.658 Y94.311 F9000.000
G1 X87.484 Y87.137 F2520.000 E2.82270
G1 X87.485 Y87.674 F9000.000
G1 X94.121 Y94.310 F2520.000 E2.96560
G1 X93.585 Y94.310 F9000.000
G1 X87.485 Y88.210 F2520.000 E3.09695
G1 X87.484 Y88.747 F9000.000
G1 X93.048 Y94.311 F2520.000 E3.21675
G1 X92.512 Y94.311 F9000.000
G1 X87.484 Y89.283 F2520.000 E3.32500
G1 X87.485 Y89.819 F9000.000
G1 X91.976 Y94.310 F2520.000 E3.42171
G1 X91.806 Y94.676 F9000.000
G1 X87.485 Y90.355 F2520.000 E3.51474
G1 X87.484 Y90.892 F9000.000
G1 X91.805 Y95.213 F2520.000 E3.60778
G1 X91.805 Y95.749 F9000.000
G1 X87.484 Y91.428 F2520.000 E3.70081
G1 X87.485 Y91.964 F9000.000
G1 X91.806 Y96.285 F2520.000 E3.79385
G1 X91.806 Y96.822 F9000.000
G1 X87.485 Y92.501 F2520.000 E3.88688
G1 X87.484 Y93.037 F9000.000
G1 X91.805 Y97.358 F2520.000 E3.97992
G1 X91.805 Y97.895 F9000.000
G1 X87.484 Y93.574 F2520.000 E4.07295
G1 X87.485 Y94.110 F9000.000
G1 X91.806 Y98.431 F2520.000 E4.16599
G1 X91.806 Y98.967 F9000.000
G1 X87.485 Y94.646 F2520.000 E4.25902
G1 X87.484 Y95.183 F9000.000
G1 X91.805 Y99.504 F2520.000 E4.35205
G1 X91.806 Y100.040 F9000.000
G1 X87.485 Y95.719 F2520.000 E4.44509
