; generated by Slic3r 0.7.2b on 2012-05-06 at 17:36:42

; layer_height = 0.25
; perimeters = 2
; solid_layers = 3
; fill_density = 0.50
; nozzle_diameter = 0.35
; filament_diameter = 2.85
; extrusion_multiplier = 1
; perimeter_speed = 40
; infill_speed = 60
; travel_speed = 150
; extrusion_width_ratio = 0
; scale = 1
; single wall width = 0.39mm

M190 S110 
M104 S240 
G28                
G92 E0  
G1 E3 F1200 
G1 E2 F1200
G92 E0  ;
M109 S240 
G90 s
G21
G92 E0 
M82
G1 Z0.250 F9000.000
G1 X82.505 Y61.040
G1 F900.000 E1.50000
G1 X82.685 Y60.860 F1680.000 E1.50384
G1 X83.065 Y60.520 E1.51153
G1 X83.685 Y60.080 E1.52300
G1 X83.905 Y59.950 E1.52685
G1 X84.365 Y59.720 E1.53461
G1 X84.835 Y59.530 E1.54225
G1 X85.325 Y59.380 E1.54998
G1 X85.575 Y59.320 E1.55386
G1 X86.325 Y59.210 E1.56529
G1 X86.835 Y59.190 E1.57299
G1 X92.985 Y59.210 E1.66574
G1 X93.245 Y59.240 E1.66969
G1 X93.775 Y59.340 E1.67782
G1 X94.295 Y59.480 E1.68594
G1 X94.805 Y59.670 E1.69415
G1 X95.285 Y59.900 E1.70218
G1 X95.965 Y60.330 E1.71431
G1 X111.185 Y72.440 E2.00765
G1 X111.745 Y73.000 E2.01959
G1 X111.915 Y73.200 E2.02355
G1 X112.225 Y73.620 E2.03142
G1 X112.625 Y74.310 E2.04345
G1 X112.735 Y74.540 E2.04730
G1 X112.925 Y75.030 E2.05522
G1 X113.075 Y75.540 E2.06324
G1 X119.115 Y114.620 E2.65962
G1 X119.125 Y115.160 E2.66777
G1 X119.085 Y115.700 E2.67594
G1 X118.995 Y116.240 E2.68419
G1 X118.865 Y116.760 E2.69228
G1 X118.575 Y117.520 E2.70454
G1 X112.435 Y128.180 E2.89008
G1 X112.285 Y128.410 E2.89422
G1 X111.935 Y128.850 E2.90270
G1 X111.755 Y129.050 E2.90675
G1 X111.355 Y129.440 E2.91518
G1 X110.915 Y129.790 E2.92366
G1 X95.525 Y139.950 E3.20178
G1 X95.045 Y140.210 E3.21001
G1 X94.555 Y140.420 E3.21805
G1 X94.295 Y140.510 E3.22220
G1 X93.775 Y140.650 E3.23033
G1 X93.255 Y140.750 E3.23831
G1 X92.985 Y140.780 E3.24241
G1 X92.445 Y140.800 E3.25056
G1 X86.325 Y140.780 E3.34286
G1 X85.575 Y140.670 E3.35429
G1 X85.075 Y140.540 E3.36208
G1 X84.595 Y140.370 E3.36976
G1 X84.135 Y140.160 E3.37739
G1 X83.905 Y140.040 E3.38130
G1 X83.685 Y139.910 E3.38515
G1 X83.065 Y139.470 E3.39662
G1 X82.685 Y139.130 E3.40431
G1 X82.505 Y138.950 E3.40815
G1 X82.165 Y138.570 E3.41584
G1 X81.725 Y137.950 E3.42731
G1 X81.595 Y137.730 E3.43116
G1 X81.365 Y137.270 E3.43892
G1 X81.175 Y136.800 E3.44656
G1 X81.025 Y136.310 E3.45429
G1 X80.965 Y136.060 E3.45817
G1 X80.855 Y135.310 E3.46960
G1 X80.855 Y64.680 E4.53481
G1 X80.965 Y63.930 E4.54624
G1 X81.095 Y63.430 E4.55403
G1 X81.265 Y62.950 E4.56171
G1 X81.475 Y62.490 E4.56934
G1 X81.595 Y62.260 E4.57325
G1 X81.725 Y62.040 E4.57711
G1 X82.165 Y61.420 E4.58857
G1 X82.466 Y61.084 E4.59537
G1 F900.000 E3.09537
G92 E0
G1 X97.431 Y107.701 F9000.000
G1 F900.000 E1.50000
G1 X105.859 Y107.701 F1680.000 E1.62710
G1 X110.073 Y115.000 E1.75421
G1 X105.859 Y122.299 E1.88131
G1 X97.431 Y122.299 E2.00841
G1 X93.217 Y115.000 E2.13551
G1 X97.402 Y107.753 E2.26172
G1 X97.214 Y107.324 F9000.000
G1 X106.076 Y107.324 F1680.000 E2.39539
G1 X110.508 Y115.000 E2.52906
G1 X106.076 Y122.676 E2.66272
G1 X97.214 Y122.676 E2.79639
G1 X92.782 Y115.000 E2.93006
G1 X97.184 Y107.376 E3.06283
G1 F900.000 E1.56283
G92 E0
G1 X95.971 Y105.433 F9000.000
G1 F900.000 E1.50000
G1 X107.169 Y105.433 F1680.000 E1.66888
G1 X112.692 Y115.000 E1.83549
G1 X107.169 Y124.567 E2.00209
G1 X96.122 Y124.567 E2.16870
G1 X96.040 Y124.426 E2.17116
G1 X92.071 Y124.426 E2.23102
G1 X92.071 Y134.426 E2.38183
G1 X87.219 Y134.426 E2.45501
G1 X87.219 Y65.574 E3.49340
G1 X92.071 Y65.574 E3.56657
G1 X92.071 Y75.574 E3.71739
G1 X101.630 Y75.574 E3.86155
G1 X102.630 Y75.627 E3.87666
G1 X103.605 Y75.781 E3.89154
G1 X104.558 Y76.036 E3.90641
G1 X105.479 Y76.390 E3.92129
G1 X106.358 Y76.838 E3.93617
G1 X106.658 Y77.033 E3.94158
G1 X106.265 Y77.426 E3.94996
G1 X104.950 Y77.426 E3.96979
G1 X104.202 Y77.130 E3.98192
G1 X103.196 Y76.871 E3.99760
G1 X102.165 Y76.741 E4.01327
G1 X101.125 Y76.741 E4.02894
G1 X100.094 Y76.871 E4.04461
G1 X99.088 Y77.130 E4.06029
G1 X98.122 Y77.512 E4.07596
G1 X97.211 Y78.013 E4.09163
G1 X96.370 Y78.624 E4.10731
G1 X95.571 Y79.374 E4.12384
G1 X95.571 Y90.626 E4.29353
G1 X96.370 Y91.376 E4.31007
G1 X97.211 Y91.987 E4.32574
G1 X98.122 Y92.488 E4.34141
G1 X99.088 Y92.870 E4.35709
G1 X100.094 Y93.129 E4.37276
G1 X101.125 Y93.259 E4.38843
G1 X102.165 Y93.259 E4.40410
G1 X103.196 Y93.129 E4.41978
G1 X104.202 Y92.870 E4.43545
G1 X104.950 Y92.574 E4.44758
G1 X106.265 Y92.574 E4.46741
G1 X106.658 Y92.967 E4.47580
G1 X106.358 Y93.162 E4.48120
G1 X105.479 Y93.610 E4.49608
G1 X104.558 Y93.964 E4.51096
G1 X103.605 Y94.219 E4.52584
G1 X102.630 Y94.373 E4.54072
G1 X101.630 Y94.426 E4.55582
G1 X92.071 Y94.426 E4.69999
G1 X92.071 Y105.424 E4.86586
G1 X95.921 Y105.424 E4.92392
G1 X96.348 Y105.056 F9000.000
G1 X107.386 Y105.056 F1680.000 E5.09039
G1 X113.127 Y115.000 E5.26356
G1 X107.386 Y124.944 E5.43674
G1 X95.904 Y124.944 E5.60991
G1 X95.822 Y124.803 E5.61237
G1 X92.448 Y124.803 E5.66326
G1 X92.448 Y134.803 E5.81407
G1 X86.842 Y134.803 E5.89862
G1 X86.842 Y65.197 E6.94838
G1 X92.448 Y65.197 E7.03292
G1 X92.448 Y75.197 E7.18374
G1 X101.640 Y75.197 E7.32237
G1 X102.670 Y75.251 E7.33792
G1 X103.683 Y75.412 E7.35339
G1 X104.674 Y75.677 E7.36887
G1 X105.632 Y76.045 E7.38434
G1 X106.546 Y76.511 E7.39982
G1 X107.254 Y76.970 E7.41254
G1 X106.421 Y77.803 E7.43030
G1 X104.878 Y77.803 E7.45357
G1 X104.085 Y77.489 E7.46643
G1 X103.125 Y77.242 E7.48139
G1 X102.141 Y77.118 E7.49634
G1 X101.149 Y77.118 E7.51130
G1 X100.165 Y77.242 E7.52626
G1 X99.205 Y77.489 E7.54121
G1 X98.282 Y77.854 E7.55617
G1 X97.413 Y78.332 E7.57113
G1 X96.611 Y78.915 E7.58609
G1 X95.948 Y79.537 E7.59981
G1 X95.948 Y90.463 E7.76457
G1 X96.611 Y91.085 E7.77829
G1 X97.413 Y91.668 E7.79325
G1 X98.282 Y92.146 E7.80821
G1 X99.205 Y92.511 E7.82317
G1 X100.165 Y92.758 E7.83812
G1 X101.149 Y92.882 E7.85308
G1 X102.141 Y92.882 E7.86804
G1 X103.125 Y92.758 E7.88299
G1 X104.085 Y92.511 E7.89795
G1 X104.878 Y92.197 E7.91081
G1 X106.421 Y92.197 E7.93408
G1 X107.254 Y93.030 E7.95184
G1 X106.546 Y93.489 E7.96456
G1 X105.632 Y93.955 E7.98004
G1 X104.674 Y94.323 E7.99551
G1 X103.683 Y94.588 E8.01099
G1 X102.670 Y94.749 E8.02646
G1 X101.640 Y94.803 E8.04201
G1 X92.448 Y94.803 E8.18064
G1 X92.448 Y105.047 E8.33514
G1 X96.298 Y105.047 E8.39320
G1 X96.354 Y105.698 F9000.000
G1 X97.714 Y107.059 F2520.000 E8.42246
G1 X97.178 Y107.059 F9000.000
G1 X95.818 Y105.698 F2520.000 E8.45171
G1 X95.273 Y105.690 F9000.000
G1 X96.937 Y107.354 F2520.000 E8.48749
G1 X96.741 Y107.694 F9000.000
G1 X94.737 Y105.690 F2520.000 E8.53057
G1 X94.201 Y105.690 F9000.000
G1 X96.545 Y108.033 F2520.000 E8.58096
G1 X96.349 Y108.373 F9000.000
G1 X93.665 Y105.690 F2520.000 E8.63865
G1 X93.129 Y105.690 F9000.000
G1 X96.152 Y108.713 F2520.000 E8.70364
G1 X95.957 Y109.052 F9000.000
G1 X92.594 Y105.689 F2520.000 E8.77593
G1 X92.058 Y105.689 F9000.000
G1 X95.761 Y109.392 F2520.000 E8.85553
G1 X95.565 Y109.732 F9000.000
G1 X87.485 Y101.652 F2520.000 E9.02923
G1 X87.485 Y101.116 F9000.000
G1 X91.806 Y105.437 F2520.000 E9.12212
G1 X91.806 Y104.901 F9000.000
G1 X87.485 Y100.580 F2520.000 E9.21501
G1 X87.484 Y100.045 F9000.000
G1 X91.805 Y104.366 F2520.000 E9.30790
G1 X91.805 Y103.830 F9000.000
G1 X87.484 Y99.509 F2520.000 E9.40080
G1 X87.484 Y98.973 F9000.000
G1 X91.805 Y103.294 F2520.000 E9.49369
G1 X91.805 Y102.758 F9000.000
G1 X87.484 Y98.437 F2520.000 E9.58658
G1 X87.484 Y97.901 F9000.000
G1 X91.805 Y102.222 F2520.000 E9.67947
G1 X91.806 Y101.686 F9000.000
G1 X87.485 Y97.365 F2520.000 E9.77236
G1 X87.485 Y96.829 F9000.000
G1 X91.806 Y101.150 F2520.000 E9.86525
G1 X91.806 Y100.614 F9000.000
G1 X87.485 Y96.293 F2520.000 E9.95815
G1 X87.485 Y95.758 F9000.000
G1 X91.806 Y100.079 F2520.000 E10.05104
G1 X91.805 Y99.543 F9000.000
G1 X87.484 Y95.222 F2520.000 E10.14393
G1 X87.484 Y94.686 F9000.000
G1 X91.805 Y99.007 F2520.000 E10.23682
G1 X91.805 Y98.471 F9000.000
G1 X87.484 Y94.150 F2520.000 E10.32971
G1 X87.484 Y93.615 F9000.000
G1 X91.805 Y97.936 F2520.000 E10.42261
G1 X91.805 Y97.400 F9000.000
G1 X87.484 Y93.079 F2520.000 E10.51550
G1 X87.485 Y92.543 F9000.000
G1 X91.806 Y96.864 F2520.000 E10.60839
G1 X91.806 Y96.328 F9000.000
G1 X87.485 Y92.007 F2520.000 E10.70128
G1 X87.485 Y91.471 F9000.000
G1 X91.806 Y95.792 F2520.000 E10.79417
G1 X91.806 Y95.256 F9000.000
G1 X87.485 Y90.935 F2520.000 E10.88706
G1 X87.484 Y90.400 F9000.000
G1 X91.805 Y94.721 F2520.000 E10.97996
G1 X91.805 Y94.185 F9000.000
G1 X87.484 Y89.864 F2520.000 E11.07285
G1 X87.484 Y89.328 F9000.000
G1 X92.317 Y94.161 F2520.000 E11.17674
G1 X92.853 Y94.161 F9000.000
G1 X87.484 Y88.792 F2520.000 E11.29215
G1 X87.484 Y88.256 F9000.000
G1 X93.389 Y94.161 F2520.000 E11.41908
G1 X93.925 Y94.160 F9000.000
G1 X87.485 Y87.720 F2520.000 E11.55753
G1 X87.485 Y87.184 F9000.000
G1 X94.461 Y94.160 F2520.000 E11.70750
G1 X94.996 Y94.160 F9000.000
G1 X87.485 Y86.649 F2520.000 E11.86898
G1 X87.485 Y86.113 F9000.000
G1 X95.532 Y94.160 F2520.000 E12.04199
G1 X96.068 Y94.161 F9000.000
G1 X87.484 Y85.577 F2520.000 E12.22651
G1 X87.484 Y85.041 F9000.000
G1 X96.604 Y94.161 F2520.000 E12.42256
G1 X97.139 Y94.161 F9000.000
G1 X87.484 Y84.506 F2520.000 E12.63012
G1 X87.484 Y83.970 F9000.000
G1 X97.675 Y94.161 F2520.000 E12.84920
G1 X98.211 Y94.161 F9000.000
G1 X87.484 Y83.434 F2520.000 E13.07980
G1 X87.485 Y82.898 F9000.000
G1 X95.306 Y90.719 F2520.000 E13.24794
G1 X95.306 Y90.183 F9000.000
G1 X87.485 Y82.362 F2520.000 E13.41607
G1 X87.485 Y81.826 F9000.000
G1 X95.306 Y89.647 F2520.000 E13.58420
G1 X95.306 Y89.111 F9000.000
G1 X87.485 Y81.290 F2520.000 E13.75234
G1 X87.484 Y80.755 F9000.000
G1 X95.305 Y88.576 F2520.000 E13.92047
G1 X95.305 Y88.040 F9000.000
G1 X87.484 Y80.219 F2520.000 E14.08861
G1 X87.484 Y79.683 F9000.000
G1 X95.305 Y87.504 F2520.000 E14.25674
G1 X95.305 Y86.968 F9000.000
G1 X87.484 Y79.147 F2520.000 E14.42488
G1 X87.485 Y78.611 F9000.000
G1 X95.305 Y86.432 F2520.000 E14.59301
G1 X95.306 Y85.896 F9000.000
G1 X87.485 Y78.075 F2520.000 E14.76114
G1 X87.485 Y77.539 F9000.000
G1 X95.306 Y85.360 F2520.000 E14.92927
G1 X95.306 Y84.825 F9000.000
G1 X87.485 Y77.004 F2520.000 E15.09741
G1 X87.485 Y76.468 F9000.000
G1 X95.306 Y84.289 F2520.000 E15.26554
G1 X95.305 Y83.753 F9000.000
G1 X87.484 Y75.932 F2520.000 E15.43368
G1 X87.484 Y75.397 F9000.000
G1 X95.305 Y83.218 F2520.000 E15.60181
G1 X95.305 Y82.682 F9000.000
G1 X87.484 Y74.861 F2520.000 E15.76995
G1 X87.484 Y74.325 F9000.000
G1 X95.305 Y82.146 F2520.000 E15.93808
G1 X95.305 Y81.610 F9000.000
G1 X87.485 Y73.789 F2520.000 E16.10621
G1 X87.485 Y73.253 F9000.000
G1 X95.306 Y81.074 F2520.000 E16.27435
G1 X95.306 Y80.538 F9000.000
G1 X87.485 Y72.717 F2520.000 E16.44248
G1 X87.485 Y72.181 F9000.000
G1 X95.306 Y80.002 F2520.000 E16.61061
G1 X95.306 Y79.466 F9000.000
G1 X91.679 Y75.839 F2520.000 E16.68859
G1 X91.806 Y75.966 F9000.000
G1 X87.485 Y71.645 F2520.000 E16.78148
G1 X87.484 Y71.110 F9000.000
G1 X91.805 Y75.431 F2520.000 E16.87437
G1 X91.805 Y74.895 F9000.000
G1 X87.484 Y70.574 F2520.000 E16.96726
G1 X87.484 Y70.038 F9000.000
G1 X91.805 Y74.359 F2520.000 E17.06015
G1 X91.805 Y73.823 F9000.000
G1 X87.484 Y69.502 F2520.000 E17.15304
G1 X87.485 Y68.966 F9000.000
G1 X91.806 Y73.287 F2520.000 E17.24594
G1 X91.806 Y72.751 F9000.000
G1 X87.485 Y68.430 F2520.000 E17.33883
G1 X87.485 Y67.895 F9000.000
G1 X91.806 Y72.216 F2520.000 E17.43172
G1 X91.806 Y71.680 F9000.000
G1 X87.485 Y67.359 F2520.000 E17.52461
G1 X87.485 Y66.823 F9000.000
G1 X91.806 Y71.144 F2520.000 E17.61750
G1 X91.805 Y70.608 F9000.000
G1 X87.484 Y66.288 F2520.000 E17.71039
G1 X87.572 Y65.840 F9000.000
G1 X91.805 Y70.073 F2520.000 E17.80139
G1 X91.805 Y69.537 F9000.000
G1 X88.108 Y65.840 F2520.000 E17.88087
G1 X88.644 Y65.840 F9000.000
G1 X91.805 Y69.001 F2520.000 E17.94883
G1 X91.806 Y68.465 F9000.000
G1 X89.180 Y65.839 F2520.000 E18.00527
G1 X89.716 Y65.839 F9000.000
G1 X91.806 Y67.929 F2520.000 E18.05019
G1 X91.806 Y67.393 F9000.000
G1 X90.252 Y65.839 F2520.000 E18.08360
G1 X90.788 Y65.839 F9000.000
G1 X91.806 Y66.857 F2520.000 E18.10548
G1 X91.805 Y66.322 F9000.000
G1 X91.323 Y65.840 F2520.000 E18.11584
G1 F900.000 E16.61584
G92 E0
G1 X92.214 Y75.840 F9000.000
G1 F900.000 E1.50000
G1 X95.507 Y79.133 F2520.000 E1.57080
G1 X95.784 Y78.874 F9000.000
G1 X92.750 Y75.840 F2520.000 E1.63602
G1 X93.286 Y75.840 F9000.000
G1 X96.060 Y78.614 F2520.000 E1.69566
G1 X96.348 Y78.366 F9000.000
G1 X93.822 Y75.840 F2520.000 E1.74998
G1 X94.358 Y75.839 F9000.000
G1 X96.659 Y78.141 F2520.000 E1.79945
G1 X96.969 Y77.915 F9000.000
G1 X94.894 Y75.839 F2520.000 E1.84408
G1 X95.429 Y75.839 F9000.000
G1 X97.298 Y77.708 F2520.000 E1.88425
G1 X97.644 Y77.518 F9000.000
G1 X95.965 Y75.839 F2520.000 E1.92033
G1 X96.501 Y75.839 F9000.000
G1 X97.990 Y77.327 F2520.000 E1.95232
G1 X98.364 Y77.167 F9000.000
G1 X97.037 Y75.840 F2520.000 E1.98085
G1 X97.572 Y75.840 F9000.000
G1 X98.748 Y77.015 F2520.000 E2.00612
G1 X99.137 Y76.868 F9000.000
G1 X98.108 Y75.840 F2520.000 E2.02823
G1 X98.644 Y75.840 F9000.000
G1 X99.563 Y76.759 F2520.000 E2.04799
G1 X99.990 Y76.649 F9000.000
G1 X99.180 Y75.839 F2520.000 E2.06540
G1 X99.716 Y75.839 F9000.000
G1 X100.449 Y76.572 F2520.000 E2.08115
G1 X100.925 Y76.512 F9000.000
G1 X100.252 Y75.839 F2520.000 E2.09561
G1 X100.788 Y75.839 F9000.000
G1 X101.424 Y76.475 F2520.000 E2.10929
G1 X101.959 Y76.476 F9000.000
G1 X101.323 Y75.840 F2520.000 E2.12297
G1 X101.878 Y75.859 F9000.000
G1 X102.523 Y76.504 F2520.000 E2.13683
G1 X103.137 Y76.582 F9000.000
G1 X102.444 Y75.889 F2520.000 E2.15173
G1 X103.076 Y75.985 F9000.000
G1 X103.816 Y76.724 F2520.000 E2.16762
G1 X103.758 Y76.130 F9000.000
G1 X104.561 Y76.934 F2520.000 E2.18490
G1 X104.520 Y76.357 F9000.000
G1 X105.324 Y77.160 F2520.000 E2.20218
G1 X105.435 Y76.735 F9000.000
G1 X105.859 Y77.160 F2520.000 E2.21131
G1 F900.000 E0.71131
G92 E0
G1 X105.463 Y92.840 F9000.000
G1 F900.000 E1.50000
G1 X105.810 Y93.187 F2520.000 E1.50746
G1 X105.457 Y93.369 F9000.000
G1 X104.927 Y92.840 F2520.000 E1.51884
G1 X104.539 Y92.987 F9000.000
G1 X105.070 Y93.518 F2520.000 E1.53026
G1 X104.683 Y93.666 F9000.000
G1 X104.150 Y93.132 F2520.000 E1.54173
G1 X103.723 Y93.242 F9000.000
G1 X104.272 Y93.791 F2520.000 E1.55354
G1 X103.850 Y93.905 F9000.000
G1 X103.297 Y93.352 F2520.000 E1.56543
G1 X102.837 Y93.428 F9000.000
G1 X103.407 Y93.998 F2520.000 E1.57767
G1 X102.945 Y94.071 F9000.000
G1 X102.362 Y93.488 F2520.000 E1.59020
G1 X101.862 Y93.524 F9000.000
G1 X102.460 Y94.122 F2520.000 E1.60306
G1 X101.950 Y94.149 F9000.000
G1 X101.326 Y93.524 F2520.000 E1.61649
G1 X100.761 Y93.496 F9000.000
G1 X101.426 Y94.161 F2520.000 E1.63079
G1 X100.890 Y94.161 F9000.000
G1 X100.147 Y93.418 F2520.000 E1.64675
G1 X99.469 Y93.274 F9000.000
G1 X100.355 Y94.160 F2520.000 E1.66581
G1 X99.819 Y94.160 F9000.000
G1 X98.722 Y93.063 F2520.000 E1.68940
G1 X97.830 Y92.707 F9000.000
G1 X99.283 Y94.160 F2520.000 E1.72064
G1 X98.747 Y94.160 F9000.000
G1 X96.473 Y91.886 F2520.000 E1.76954
G1 F900.000 E0.26954
G92 E0
G1 X87.485 Y102.188 F9000.000
G1 F900.000 E1.50000
G1 X95.368 Y110.071 F2520.000 E1.66948
G1 X95.172 Y110.411 F9000.000
G1 X87.484 Y102.724 F2520.000 E1.83475
G1 X87.484 Y103.259 F9000.000
G1 X94.976 Y110.751 F2520.000 E1.99580
G1 X94.780 Y111.091 F9000.000
G1 X87.484 Y103.795 F2520.000 E2.15263
G1 X87.484 Y104.331 F9000.000
G1 X94.583 Y111.431 F2520.000 E2.30525
G1 X94.387 Y111.770 F9000.000
G1 X87.484 Y104.867 F2520.000 E2.45365
G1 X87.485 Y105.402 F9000.000
G1 X94.192 Y112.109 F2520.000 E2.59784
G1 X93.996 Y112.449 F9000.000
G1 X87.485 Y105.938 F2520.000 E2.73781
G1 X87.485 Y106.474 F9000.000
G1 X93.799 Y112.789 F2520.000 E2.87356
G1 X93.603 Y113.129 F9000.000
G1 X87.485 Y107.010 F2520.000 E3.00510
G1 X87.484 Y107.546 F9000.000
G1 X93.407 Y113.468 F2520.000 E3.13242
G1 X93.211 Y113.808 F9000.000
G1 X87.484 Y108.082 F2520.000 E3.25552
G1 X87.484 Y108.618 F9000.000
G1 X93.015 Y114.148 F2520.000 E3.37441
G1 X92.818 Y114.488 F9000.000
G1 X87.484 Y109.154 F2520.000 E3.48908
G1 X87.485 Y109.689 F9000.000
G1 X92.623 Y114.827 F2520.000 E3.59953
G1 X92.578 Y115.318 F9000.000
G1 X87.485 Y110.225 F2520.000 E3.70903
