; generated by Slic3r 0.8.2 on 2012-07-07 at 14:27:10

; layer_height = 0.25
; perimeters = 1
; solid_layers = 3
; fill_density = 0.9
; nozzle_diameter = 0.5
; filament_diameter = 1.75
; extrusion_multiplier = 1
; perimeter_speed = 70
; infill_speed = 80
; travel_speed = 130
; extrusion_width_ratio = 0
; scale = 1
; single wall width = 0.70mm

M190 S125 ; wait for bed temperature to be reached
M104 S240 ; set temperature
G28 ; home all axes
M109 S240 ; wait for temperature to be reached
G90 ; use absolute coordinates
G21 ; set units to millimeters
G92 E0 ; reset extrusion distance
M82 ; use absolute distances for extrusion
G1 Z0.325 F7800.000
G1 X58.070 Y35.466
G1 F1800.000 E2.00000
G1 X58.210 Y35.326 F1680.000 E2.01758
G1 X58.510 Y35.086 E2.05169
G1 X58.840 Y34.866 E2.08690
G1 X62.720 Y32.626 E2.48467
G1 X62.890 Y32.546 E2.50135
G1 X63.430 Y32.356 E2.55218
G1 X71.110 Y30.296 E3.25814
G1 X71.300 Y30.256 E3.27538
G1 X71.680 Y30.216 E3.30930
G1 X122.080 Y30.216 E7.78402
G1 X122.500 Y30.266 E7.82158
G1 X122.910 Y30.366 E7.85905
G1 X123.500 Y30.596 E7.91527
G1 X123.680 Y30.696 E7.93355
G1 X124.200 Y31.066 E7.99021
G1 X124.360 Y31.206 E8.00909
G1 X124.650 Y31.506 E8.04613
G1 X124.900 Y31.846 E8.08360
G1 X127.890 Y37.046 E8.61616
G1 X127.990 Y37.266 E8.63761
G1 X128.140 Y37.706 E8.67889
G1 X128.230 Y38.176 E8.72137
G1 X128.260 Y38.646 E8.76319
G1 X128.260 Y136.476 E17.44894
G1 X128.240 Y136.686 E17.46767
G1 X128.170 Y137.086 E17.50372
G1 X128.060 Y137.476 E17.53970
G1 X127.990 Y137.666 E17.55768
G1 X127.710 Y138.206 E17.61168
G1 X127.470 Y138.536 E17.64791
G1 X127.200 Y138.836 E17.68374
G1 X126.900 Y139.106 E17.71958
G1 X126.570 Y139.346 E17.75581
G1 X126.030 Y139.626 E17.80981
G1 X125.840 Y139.696 E17.82779
G1 X125.450 Y139.806 E17.86376
G1 X125.050 Y139.876 E17.89982
G1 X124.840 Y139.896 E17.91855
G1 X68.850 Y139.886 E22.88957
G1 X68.620 Y139.866 E22.91007
G1 X68.150 Y139.776 E22.95256
G1 X67.700 Y139.626 E22.99467
G1 X67.280 Y139.416 E23.03636
G1 X53.360 Y131.376 E24.46357
G1 X53.190 Y131.256 E24.48205
G1 X53.020 Y131.116 E24.50160
G1 X52.720 Y130.836 E24.53803
G1 X52.580 Y130.676 E24.55691
G1 X52.320 Y130.336 E24.59491
G1 X52.110 Y129.976 E24.63191
G1 X52.020 Y129.776 E24.65138
G1 X51.880 Y129.386 E24.68817
G1 X51.780 Y128.976 E24.72564
G1 X51.730 Y128.556 E24.76320
G1 X51.750 Y42.946 E32.36401
G1 X51.830 Y42.516 E32.40284
G1 X51.890 Y42.306 E32.42223
G1 X52.040 Y41.906 E32.46016
G1 X52.240 Y41.516 E32.49907
G1 X52.620 Y40.986 E32.55697
G1 X57.996 Y35.541 E33.23636
G1 X58.510 Y35.896 F7800.000
G1 X58.750 Y35.686 F1680.000 E33.26467
G1 X59.010 Y35.496 E33.29326
G1 X62.870 Y33.256 E33.68949
G1 X63.150 Y33.116 E33.71729
G1 X63.290 Y33.056 E33.73081
G1 X63.590 Y32.956 E33.75889
G1 X71.090 Y30.936 E34.44850
G1 X71.400 Y30.876 E34.47653
G1 X71.710 Y30.836 E34.50428
G1 X121.870 Y30.836 E38.95769
G1 X122.240 Y30.856 E38.99059
G1 X122.420 Y30.886 E39.00679
G1 X122.780 Y30.976 E39.03974
G1 X122.950 Y31.036 E39.05575
G1 X123.290 Y31.196 E39.08911
G1 X123.450 Y31.286 E39.10541
G1 X123.750 Y31.496 E39.13792
G1 X124.030 Y31.746 E39.17125
G1 X124.270 Y32.026 E39.20399
G1 X127.240 Y37.146 E39.72951
G1 X127.410 Y37.496 E39.76405
G1 X127.540 Y37.876 E39.79971
G1 X127.610 Y38.256 E39.83402
G1 X127.630 Y38.446 E39.85098
G1 X127.640 Y136.276 E48.53673
G1 X127.620 Y136.636 E48.56874
G1 X127.590 Y136.816 E48.58494
G1 X127.550 Y136.996 E48.60131
G1 X127.450 Y137.336 E48.63278
G1 X127.380 Y137.506 E48.64910
G1 X127.210 Y137.826 E48.68127
G1 X127.000 Y138.126 E48.71379
G1 X126.890 Y138.266 E48.72959
G1 X126.630 Y138.526 E48.76224
G1 X126.340 Y138.746 E48.79456
G1 X126.190 Y138.846 E48.81056
G1 X125.870 Y139.016 E48.84273
G1 X125.700 Y139.086 E48.85906
G1 X125.360 Y139.186 E48.89052
G1 X125.180 Y139.226 E48.90689
G1 X125.000 Y139.256 E48.92310
G1 X124.640 Y139.276 E48.95511
G1 X68.890 Y139.266 E53.90482
G1 X68.500 Y139.216 E53.93973
G1 X68.310 Y139.176 E53.95697
G1 X67.940 Y139.046 E53.99179
G1 X67.760 Y138.966 E54.00928
G1 X53.690 Y130.846 E55.45157
G1 X53.400 Y130.626 E55.48389
G1 X53.130 Y130.366 E55.51717
G1 X53.010 Y130.226 E55.53354
G1 X52.800 Y129.926 E55.56605
G1 X52.620 Y129.596 E55.59943
G1 X52.490 Y129.256 E55.63175
G1 X52.400 Y128.896 E55.66469
G1 X52.370 Y128.716 E55.68089
G1 X52.350 Y128.346 E55.71379
G1 X52.350 Y43.376 E63.25778
G1 X52.380 Y42.986 E63.29251
G1 X52.450 Y42.606 E63.32681
G1 X52.570 Y42.236 E63.36135
G1 X52.650 Y42.056 E63.37884
G1 X52.850 Y41.726 E63.41310
G1 X52.960 Y41.566 E63.43034
G1 X53.210 Y41.266 E63.46501
G1 X58.436 Y35.971 E64.12556
G1 F1800.000 E62.12556
G1 Z1.325 F7800.000
G92 E0
G1 X112.587 Y104.955
G1 Z0.325
G1 F1800.000 E2.00000
G1 X113.197 Y104.511 F480.000 E2.06692
G1 X113.886 Y104.205 E2.13384
G1 X114.607 Y104.052 E2.19930
G1 X115.373 Y104.047 E2.26733
G1 X116.114 Y104.205 E2.33459
G1 X116.803 Y104.511 E2.40151
G1 X117.413 Y104.955 E2.46843
G1 X117.906 Y105.502 E2.53388
G1 X118.293 Y106.164 E2.60192
G1 X118.527 Y106.884 E2.66918
G1 X118.606 Y107.634 E2.73610
G1 X118.527 Y108.384 E2.80301
G1 X118.294 Y109.100 E2.86994
G1 X117.917 Y109.753 E2.93687
G1 X117.413 Y110.313 E3.00378
G1 X116.803 Y110.756 E3.07070
G1 X116.114 Y111.063 E3.13763
G1 X115.377 Y111.220 E3.20455
G1 X114.623 Y111.220 E3.27147
G1 X113.886 Y111.063 E3.33839
G1 X113.197 Y110.756 E3.40532
G1 X112.587 Y110.313 E3.47224
G1 X112.083 Y109.753 E3.53915
G1 X111.706 Y109.100 E3.60608
G1 X111.473 Y108.384 E3.67301
G1 X111.394 Y107.634 E3.73993
G1 X111.473 Y106.884 E3.80684
G1 X111.706 Y106.167 E3.87377
G1 X112.083 Y105.515 E3.94070
G1 X112.517 Y105.033 E3.99829
G1 X113.006 Y105.419 F7800.000
G1 X113.510 Y105.053 F480.000 E4.05361
G1 X114.079 Y104.799 E4.10894
G1 X114.674 Y104.673 E4.16295
G1 X115.310 Y104.669 E4.21938
G1 X115.921 Y104.799 E4.27488
G1 X116.490 Y105.053 E4.33021
G1 X116.994 Y105.419 E4.38553
G1 X117.401 Y105.871 E4.43954
G1 X117.722 Y106.420 E4.49598
G1 X117.915 Y107.014 E4.55148
G1 X117.981 Y107.634 E4.60680
G1 X117.915 Y108.254 E4.66212
G1 X117.723 Y108.846 E4.71745
G1 X117.411 Y109.386 E4.77278
G1 X116.994 Y109.849 E4.82810
G1 X116.490 Y110.215 E4.88342
G1 X115.921 Y110.469 E4.93874
G1 X115.312 Y110.598 E4.99407
G1 X114.688 Y110.598 E5.04939
G1 X114.079 Y110.469 E5.10471
G1 X113.510 Y110.215 E5.16004
G1 X113.006 Y109.849 E5.21536
G1 X112.589 Y109.386 E5.27068
G1 X112.277 Y108.846 E5.32601
G1 X112.085 Y108.254 E5.38134
G1 X112.019 Y107.634 E5.43666
G1 X112.085 Y107.014 E5.49198
G1 X112.277 Y106.422 E5.54730
G1 X112.589 Y105.882 E5.60263
G1 X112.935 Y105.497 E5.64863
G1 F1800.000 E3.64863
G1 Z1.325 F7800.000
G92 E0
G1 X114.607 Y124.052
G1 Z0.325
G1 F1800.000 E2.00000
G1 X115.373 Y124.047 F480.000 E2.06803
G1 X116.114 Y124.205 E2.13528
G1 X116.803 Y124.511 E2.20221
G1 X117.413 Y124.955 E2.26913
G1 X117.906 Y125.502 E2.33458
G1 X118.293 Y126.164 E2.40262
G1 X118.527 Y126.884 E2.46988
G1 X118.606 Y127.634 E2.53679
G1 X118.527 Y128.384 E2.60371
G1 X118.294 Y129.100 E2.67064
G1 X117.917 Y129.753 E2.73756
G1 X117.413 Y130.313 E2.80448
G1 X116.803 Y130.756 E2.87140
G1 X116.114 Y131.063 E2.93833
G1 X115.377 Y131.220 E3.00525
G1 X114.623 Y131.220 E3.07217
G1 X113.886 Y131.063 E3.13909
G1 X113.197 Y130.756 E3.20602
G1 X112.587 Y130.313 E3.27294
G1 X112.083 Y129.753 E3.33985
G1 X111.706 Y129.100 E3.40678
G1 X111.473 Y128.384 E3.47371
G1 X111.394 Y127.634 E3.54062
G1 X111.473 Y126.884 E3.60754
G1 X111.706 Y126.167 E3.67447
G1 X112.083 Y125.515 E3.74139
G1 X112.587 Y124.955 E3.80831
G1 X113.197 Y124.511 E3.87523
G1 X113.886 Y124.205 E3.94216
G1 X114.504 Y124.073 E3.99829
G1 X114.674 Y124.673 F7800.000
G1 X115.310 Y124.669 F480.000 E4.05472
G1 X115.921 Y124.799 E4.11023
G1 X116.490 Y125.053 E4.16555
G1 X116.994 Y125.419 E4.22087
G1 X117.401 Y125.871 E4.27488
G1 X117.722 Y126.420 E4.33132
G1 X117.915 Y127.014 E4.38682
G1 X117.981 Y127.634 E4.44214
G1 X117.915 Y128.254 E4.49746
G1 X117.723 Y128.846 E4.55279
G1 X117.411 Y129.386 E4.60812
G1 X116.994 Y129.849 E4.66344
G1 X116.490 Y130.215 E4.71876
G1 X115.921 Y130.469 E4.77409
G1 X115.312 Y130.598 E4.82941
G1 X114.688 Y130.598 E4.88473
G1 X114.079 Y130.469 E4.94006
G1 X113.510 Y130.215 E4.99538
G1 X113.006 Y129.849 E5.05070
G1 X112.589 Y129.386 E5.10603
G1 X112.277 Y128.846 E5.16135
G1 X112.085 Y128.254 E5.21668
G1 X112.019 Y127.634 E5.27200
G1 X112.085 Y127.014 E5.32732
G1 X112.277 Y126.422 E5.38265
G1 X112.589 Y125.882 E5.43797
G1 X113.006 Y125.419 E5.49329
G1 X113.510 Y125.053 E5.54861
G1 X114.079 Y124.799 E5.60394
G1 X114.571 Y124.695 E5.64863
G1 F1800.000 E3.64863
G1 Z1.325 F7800.000
G92 E0
G1 X105.971 Y127.990
G1 Z0.325
G1 F1800.000 E2.00000
G1 X105.971 Y93.822 F1680.000 E5.03355
G1 X108.356 Y89.693 E5.45689
G1 X114.851 Y93.443 E6.12277
G1 X115.851 Y91.711 E6.30035
G1 X118.498 Y93.240 E6.57176
G1 X117.498 Y94.972 E6.74934
G1 X124.029 Y98.742 E7.41881
G1 X124.029 Y135.663 E10.69678
G1 X119.260 Y135.663 E11.12013
G1 X106.062 Y128.043 E12.47316
G1 X105.350 Y128.349 F7800.000
G1 X105.350 Y93.656 F1680.000 E15.55336
G1 X108.128 Y88.844 E16.04666
G1 X114.623 Y92.594 E16.71254
G1 X115.623 Y90.862 E16.89011
G1 X119.347 Y93.012 E17.27188
G1 X118.347 Y94.744 E17.44945
G1 X124.650 Y98.383 E18.09561
G1 X124.650 Y136.284 E21.46061
G1 X119.094 Y136.284 E21.95391
G1 X105.441 Y128.401 E23.35359
G1 F1800.000 E21.35359
G1 Z1.325 F7800.000
G92 E0
G1 X92.413 Y110.313
G1 Z0.325
G1 F1800.000 E2.00000
G1 X91.803 Y110.756 F480.000 E2.06692
G1 X91.114 Y111.063 E2.13384
G1 X90.377 Y111.220 E2.20076
G1 X89.623 Y111.220 E2.26769
G1 X88.886 Y111.063 E2.33461
G1 X88.197 Y110.756 E2.40153
G1 X87.587 Y110.313 E2.46845
G1 X87.083 Y109.753 E2.53537
G1 X86.706 Y109.100 E2.60230
G1 X86.473 Y108.384 E2.66923
G1 X86.394 Y107.634 E2.73614
G1 X86.473 Y106.884 E2.80306
G1 X86.706 Y106.167 E2.86998
G1 X87.083 Y105.515 E2.93691
G1 X87.587 Y104.955 E3.00383
G1 X88.197 Y104.511 E3.07075
G1 X88.886 Y104.205 E3.13767
G1 X89.607 Y104.052 E3.20313
G1 X90.373 Y104.047 E3.27116
G1 X91.114 Y104.205 E3.33842
G1 X91.803 Y104.511 E3.40534
G1 X92.413 Y104.955 E3.47226
G1 X92.906 Y105.502 E3.53771
G1 X93.293 Y106.164 E3.60575
G1 X93.527 Y106.884 E3.67301
G1 X93.606 Y107.634 E3.73993
G1 X93.527 Y108.384 E3.80684
G1 X93.294 Y109.100 E3.87377
G1 X92.917 Y109.753 E3.94070
G1 X92.483 Y110.235 E3.99829
G1 X91.994 Y109.849 F7800.000
G1 X91.490 Y110.215 F480.000 E4.05361
G1 X90.921 Y110.469 E4.10894
G1 X90.312 Y110.598 E4.16426
G1 X89.688 Y110.598 E4.21958
G1 X89.079 Y110.469 E4.27491
G1 X88.510 Y110.215 E4.33023
G1 X88.006 Y109.849 E4.38555
G1 X87.589 Y109.386 E4.44088
G1 X87.277 Y108.846 E4.49620
G1 X87.085 Y108.254 E4.55153
G1 X87.019 Y107.634 E4.60685
G1 X87.085 Y107.014 E4.66217
G1 X87.277 Y106.422 E4.71750
G1 X87.589 Y105.882 E4.77282
G1 X88.006 Y105.419 E4.82815
G1 X88.510 Y105.053 E4.88347
G1 X89.079 Y104.799 E4.93879
G1 X89.674 Y104.673 E4.99280
G1 X90.310 Y104.669 E5.04924
G1 X90.921 Y104.799 E5.10474
G1 X91.490 Y105.053 E5.16006
G1 X91.994 Y105.419 E5.21538
G1 X92.401 Y105.871 E5.26940
G1 X92.722 Y106.420 E5.32583
G1 X92.915 Y107.014 E5.38134
G1 X92.981 Y107.634 E5.43666
G1 X92.915 Y108.254 E5.49198
G1 X92.723 Y108.846 E5.54730
G1 X92.411 Y109.386 E5.60263
G1 X92.065 Y109.771 E5.64863
G1 F1800.000 E3.64863
G1 Z1.325 F7800.000
G92 E0
G1 X90.373 Y124.047
G1 Z0.325
G1 F1800.000 E2.00000
G1 X91.114 Y124.205 F480.000 E2.06725
G1 X91.803 Y124.511 E2.13418
G1 X92.413 Y124.955 E2.20110
G1 X92.906 Y125.502 E2.26655
G1 X93.293 Y126.164 E2.33459
G1 X93.527 Y126.884 E2.40184
G1 X93.606 Y127.634 E2.46876
G1 X93.527 Y128.384 E2.53568
G1 X93.294 Y129.100 E2.60260
G1 X92.917 Y129.753 E2.66953
G1 X92.413 Y130.313 E2.73645
G1 X91.803 Y130.756 E2.80337
G1 X91.114 Y131.063 E2.87029
G1 X90.377 Y131.220 E2.93721
G1 X89.623 Y131.220 E3.00414
G1 X88.886 Y131.063 E3.07106
G1 X88.197 Y130.756 E3.13798
G1 X87.587 Y130.313 E3.20490
G1 X87.083 Y129.753 E3.27182
G1 X86.706 Y129.100 E3.33875
G1 X86.473 Y128.384 E3.40568
G1 X86.394 Y127.634 E3.47259
G1 X86.473 Y126.884 E3.53951
G1 X86.706 Y126.167 E3.60643
G1 X87.083 Y125.515 E3.67336
G1 X87.587 Y124.955 E3.74028
G1 X88.197 Y124.511 E3.80720
G1 X88.886 Y124.205 E3.87412
G1 X89.607 Y124.052 E3.93958
G1 X90.268 Y124.048 E3.99829
G1 X90.310 Y124.669 F7800.000
G1 X90.921 Y124.799 F480.000 E4.05379
G1 X91.490 Y125.053 E4.10912
G1 X91.994 Y125.419 E4.16444
G1 X92.401 Y125.871 E4.21845
G1 X92.722 Y126.420 E4.27489
G1 X92.915 Y127.014 E4.33039
G1 X92.981 Y127.634 E4.38571
G1 X92.915 Y128.254 E4.44103
G1 X92.723 Y128.846 E4.49636
G1 X92.411 Y129.386 E4.55168
G1 X91.994 Y129.849 E4.60701
G1 X91.490 Y130.215 E4.66233
G1 X90.921 Y130.469 E4.71765
G1 X90.312 Y130.598 E4.77298
G1 X89.688 Y130.598 E4.82830
G1 X89.079 Y130.469 E4.88362
G1 X88.510 Y130.215 E4.93895
G1 X88.006 Y129.849 E4.99427
G1 X87.589 Y129.386 E5.04959
G1 X87.277 Y128.846 E5.10492
G1 X87.085 Y128.254 E5.16024
G1 X87.019 Y127.634 E5.21557
G1 X87.085 Y127.014 E5.27089
G1 X87.277 Y126.422 E5.32621
G1 X87.589 Y125.882 E5.38154
G1 X88.006 Y125.419 E5.43686
G1 X88.510 Y125.053 E5.49218
G1 X89.079 Y124.799 E5.54751
G1 X89.674 Y124.673 E5.60152
G1 X90.205 Y124.670 E5.64863
G1 F1800.000 E3.64863
G1 Z1.325 F7800.000
G92 E0
G1 X80.971 Y127.990
G1 Z0.325
G1 F1800.000 E2.00000
G1 X80.971 Y93.822 F1680.000 E5.03355
G1 X83.356 Y89.693 E5.45689
G1 X89.851 Y93.443 E6.12277
G1 X90.851 Y91.711 E6.30035
G1 X93.498 Y93.240 E6.57176
G1 X92.498 Y94.972 E6.74934
G1 X99.029 Y98.742 E7.41881
G1 X99.029 Y135.663 E10.69678
G1 X94.260 Y135.663 E11.12013
G1 X81.062 Y128.043 E12.47316
G1 X80.350 Y128.349 F7800.000
G1 X80.350 Y93.656 F1680.000 E15.55336
G1 X83.128 Y88.844 E16.04666
G1 X89.623 Y92.594 E16.71254
G1 X90.623 Y90.862 E16.89011
G1 X94.347 Y93.012 E17.27188
G1 X93.347 Y94.744 E17.44945
G1 X99.650 Y98.383 E18.09561
G1 X99.650 Y136.284 E21.46061
G1 X94.094 Y136.284 E21.95391
G1 X80.441 Y128.401 E23.35359
G1 F1800.000 E21.35359
G1 Z1.325 F7800.000
G92 E0
G1 X67.413 Y110.313
G1 Z0.325
G1 F1800.000 E2.00000
G1 X66.803 Y110.756 F480.000 E2.06692
G1 X66.114 Y111.063 E2.13384
G1 X65.377 Y111.220 E2.20076
G1 X64.623 Y111.220 E2.26768
G1 X63.886 Y111.063 E2.33461
G1 X63.197 Y110.756 E2.40153
G1 X62.587 Y110.313 E2.46846
G1 X62.083 Y109.753 E2.53538
G1 X61.706 Y109.101 E2.60229
G1 X61.473 Y108.384 E2.66922
G1 X61.394 Y107.634 E2.73614
G1 X61.473 Y106.884 E2.80306
G1 X61.706 Y106.167 E2.86999
G1 X62.083 Y105.515 E2.93691
G1 X62.587 Y104.955 E3.00383
G1 X63.197 Y104.511 E3.07075
G1 X63.886 Y104.205 E3.13768
G1 X64.607 Y104.052 E3.20313
G1 X65.373 Y104.047 E3.27116
G1 X66.114 Y104.205 E3.33842
G1 X66.803 Y104.511 E3.40534
G1 X67.413 Y104.955 E3.47226
G1 X67.906 Y105.502 E3.53772
G1 X68.293 Y106.164 E3.60575
G1 X68.527 Y106.884 E3.67301
G1 X68.606 Y107.634 E3.73993
G1 X68.527 Y108.384 E3.80684
G1 X68.294 Y109.100 E3.87377
G1 X67.917 Y109.753 E3.94070
G1 X67.483 Y110.235 E3.99829
G1 X66.994 Y109.849 F7800.000
G1 X66.490 Y110.215 F480.000 E4.05361
G1 X65.921 Y110.469 E4.10894
G1 X65.312 Y110.598 E4.16426
G1 X64.688 Y110.598 E4.21958
G1 X64.079 Y110.469 E4.27491
G1 X63.510 Y110.215 E4.33023
G1 X63.006 Y109.849 E4.38556
G1 X62.589 Y109.386 E4.44088
G1 X62.277 Y108.846 E4.49620
G1 X62.084 Y108.254 E4.55153
G1 X62.019 Y107.634 E4.60685
G1 X62.084 Y107.014 E4.66217
G1 X62.277 Y106.422 E4.71750
G1 X62.589 Y105.882 E4.77282
G1 X63.006 Y105.419 E4.82814
G1 X63.510 Y105.053 E4.88347
G1 X64.079 Y104.799 E4.93879
G1 X64.674 Y104.673 E4.99281
G1 X65.310 Y104.669 E5.04924
G1 X65.921 Y104.799 E5.10474
G1 X66.490 Y105.053 E5.16007
G1 X66.994 Y105.419 E5.21539
G1 X67.401 Y105.871 E5.26940
G1 X67.722 Y106.420 E5.32583
G1 X67.915 Y107.014 E5.38134
G1 X67.981 Y107.634 E5.43666
G1 X67.915 Y108.254 E5.49198
G1 X67.723 Y108.846 E5.54731
G1 X67.411 Y109.386 E5.60263
G1 X67.065 Y109.771 E5.64863
G1 F1800.000 E3.64863
G1 Z1.325 F7800.000
G92 E0
G1 X65.373 Y124.047
G1 Z0.325
G1 F1800.000 E2.00000
G1 X66.114 Y124.205 F480.000 E2.06725
G1 X66.803 Y124.511 E2.13418
G1 X67.413 Y124.955 E2.20110
G1 X67.906 Y125.502 E2.26655
G1 X68.293 Y126.164 E2.33459
G1 X68.527 Y126.884 E2.40184
G1 X68.606 Y127.634 E2.46876
G1 X68.527 Y128.384 E2.53568
G1 X68.294 Y129.100 E2.60260
G1 X67.917 Y129.753 E2.66953
