; generated by Slic3r 0.8.2 on 2012-07-07 at 14:28:48

; layer_height = 0.25
; perimeters = 1
; solid_layers = 3
; fill_density = 0.9
; nozzle_diameter = 0.5
; filament_diameter = 1.75
; extrusion_multiplier = 1
; perimeter_speed = 70
; infill_speed = 80
; travel_speed = 130
; extrusion_width_ratio = 0
; scale = 1
; single wall width = 0.70mm

M190 S125 ; wait for bed temperature to be reached
M104 S240 ; set temperature
G28 ; home all axes
M109 S240 ; wait for temperature to be reached
G90 ; use absolute coordinates
G21 ; set units to millimeters
G92 E0 ; reset extrusion distance
M82 ; use absolute distances for extrusion
G1 Z0.325 F7800.000
G1 X37.060 Y11.040
G1 F1800.000 E2.00000
G1 X37.170 Y10.860 F1680.000 E2.01873
G1 X37.430 Y10.520 E2.05673
G1 X37.570 Y10.360 E2.07561
G1 X37.870 Y10.080 E2.11204
G1 X38.040 Y9.940 E2.13159
G1 X38.210 Y9.820 E2.15007
G1 X38.570 Y9.610 E2.18707
G1 X38.770 Y9.520 E2.20654
G1 X39.160 Y9.380 E2.24333
G1 X39.570 Y9.280 E2.28080
G1 X39.990 Y9.230 E2.31835
G1 X142.970 Y9.670 E11.46143
G1 X143.200 Y9.690 E11.48192
G1 X143.660 Y9.780 E11.52354
G1 X143.880 Y9.850 E11.54404
G1 X144.310 Y10.030 E11.58542
G1 X161.510 Y19.950 E13.34829
G1 X161.680 Y20.070 E13.36676
G1 X161.850 Y20.210 E13.38632
G1 X162.150 Y20.490 E13.42275
G1 X162.290 Y20.650 E13.44163
G1 X162.550 Y20.990 E13.47963
G1 X162.760 Y21.350 E13.51663
G1 X162.850 Y21.550 E13.53610
G1 X162.990 Y21.940 E13.57289
G1 X163.090 Y22.350 E13.61036
G1 X163.140 Y22.770 E13.64791
G1 X163.130 Y123.220 E22.56628
G1 X163.110 Y123.450 E22.58678
G1 X163.020 Y123.920 E22.62926
G1 X162.870 Y124.370 E22.67138
G1 X162.660 Y124.790 E22.71307
G1 X142.820 Y159.130 E26.23419
G1 X142.560 Y159.470 E26.27219
G1 X142.420 Y159.630 E26.29106
G1 X142.120 Y159.910 E26.32750
G1 X141.950 Y160.050 E26.34705
G1 X141.780 Y160.170 E26.36553
G1 X141.420 Y160.380 E26.40253
G1 X141.220 Y160.470 E26.42200
G1 X140.830 Y160.610 E26.45879
G1 X140.420 Y160.710 E26.49626
G1 X140.000 Y160.760 E26.53381
G1 X37.020 Y160.320 E35.67688
G1 X36.790 Y160.300 E35.69738
G1 X36.330 Y160.210 E35.73900
G1 X36.110 Y160.140 E35.75949
G1 X35.680 Y159.960 E35.80088
G1 X18.480 Y150.040 E37.56375
G1 X18.310 Y149.920 E37.58222
G1 X18.140 Y149.780 E37.60178
G1 X17.840 Y149.500 E37.63821
G1 X17.700 Y149.340 E37.65708
G1 X17.440 Y149.000 E37.69509
G1 X17.230 Y148.640 E37.73209
G1 X17.140 Y148.440 E37.75156
G1 X17.000 Y148.050 E37.78835
G1 X16.900 Y147.640 E37.82582
G1 X16.850 Y147.220 E37.86337
G1 X16.860 Y46.770 E46.78174
G1 X16.880 Y46.540 E46.80224
G1 X16.970 Y46.070 E46.84472
G1 X17.120 Y45.620 E46.88684
G1 X17.330 Y45.200 E46.92853
G1 X37.007 Y11.131 E50.42160
G1 X37.600 Y11.350 F7800.000
G1 X37.700 Y11.190 F1680.000 E50.43835
G1 X37.920 Y10.900 E50.47067
G1 X38.180 Y10.630 E50.50395
G1 X38.320 Y10.510 E50.52032
G1 X38.620 Y10.300 E50.55283
G1 X38.950 Y10.120 E50.58621
G1 X39.290 Y9.990 E50.61852
G1 X39.650 Y9.900 E50.65147
G1 X39.830 Y9.870 E50.66767
G1 X40.200 Y9.850 E50.70057
G1 X142.950 Y10.290 E59.82322
G1 X143.390 Y10.360 E59.86278
G1 X143.810 Y10.490 E59.90181
G1 X144.210 Y10.680 E59.94113
G1 X161.180 Y20.480 E61.68098
G1 X161.470 Y20.700 E61.71330
G1 X161.740 Y20.960 E61.74658
G1 X161.860 Y21.100 E61.76295
G1 X162.070 Y21.400 E61.79547
G1 X162.250 Y21.730 E61.82884
G1 X162.380 Y22.070 E61.86116
G1 X162.470 Y22.430 E61.89410
G1 X162.500 Y22.610 E61.91030
G1 X162.520 Y22.980 E61.94320
G1 X162.510 Y123.180 E70.83937
G1 X162.460 Y123.570 E70.87428
G1 X162.420 Y123.760 E70.89152
G1 X162.290 Y124.130 E70.92634
G1 X162.210 Y124.310 E70.94383
G1 X142.290 Y158.800 E74.48003
G1 X142.070 Y159.090 E74.51235
G1 X141.810 Y159.360 E74.54563
G1 X141.670 Y159.480 E74.56200
G1 X141.370 Y159.690 E74.59451
G1 X141.040 Y159.870 E74.62789
G1 X140.700 Y160.000 E74.66020
G1 X140.340 Y160.090 E74.69315
G1 X140.160 Y160.120 E74.70935
G1 X139.790 Y160.140 E74.74225
G1 X37.040 Y159.700 E83.86490
G1 X36.600 Y159.630 E83.90446
G1 X36.180 Y159.500 E83.94349
G1 X35.780 Y159.310 E83.98281
G1 X18.810 Y149.510 E85.72266
G1 X18.520 Y149.290 E85.75498
G1 X18.250 Y149.030 E85.78826
G1 X18.130 Y148.890 E85.80463
G1 X17.920 Y148.590 E85.83715
G1 X17.740 Y148.260 E85.87052
G1 X17.610 Y147.920 E85.90284
G1 X17.520 Y147.560 E85.93578
G1 X17.490 Y147.380 E85.95198
G1 X17.470 Y147.010 E85.98488
G1 X17.480 Y46.810 E94.88105
G1 X17.530 Y46.420 E94.91596
G1 X17.570 Y46.230 E94.93320
G1 X17.700 Y45.860 E94.96802
G1 X17.780 Y45.680 E94.98551
G1 X37.547 Y11.441 E98.49565
G1 F1800.000 E96.49565
G1 Z1.325 F7800.000
G92 E0
G1 X79.474 Y140.186
G1 Z0.325
G1 F1800.000 E2.00000
G1 X80.191 Y139.954 F480.000 E2.06691
G1 X80.940 Y139.876 E2.13376
G1 X81.689 Y139.954 E2.20062
G1 X82.406 Y140.186 E2.26753
G1 X83.045 Y140.555 E2.33306
G1 X83.617 Y141.065 E2.40115
G1 X84.062 Y141.678 E2.46838
G1 X84.369 Y142.366 E2.53523
G1 X84.525 Y143.105 E2.60227
G1 X84.525 Y143.858 E2.66913
G1 X84.369 Y144.595 E2.73603
G1 X84.062 Y145.284 E2.80302
G1 X83.619 Y145.893 E2.86989
G1 X83.059 Y146.398 E2.93680
G1 X82.407 Y146.774 E3.00367
G1 X81.690 Y147.008 E3.07061
G1 X80.940 Y147.086 E3.13759
G1 X80.787 Y147.070 E3.15126
G1 X80.787 Y147.070 E3.15126
G1 X80.189 Y147.008 E3.20457
G1 X79.473 Y146.774 E3.27150
G1 X78.820 Y146.398 E3.33836
G1 X78.261 Y145.893 E3.40528
G1 X77.817 Y145.284 E3.47215
G1 X77.511 Y144.595 E3.53913
G1 X77.354 Y143.858 E3.60603
G1 X77.354 Y143.105 E3.67290
G1 X77.511 Y142.366 E3.73993
G1 X77.817 Y141.678 E3.80679
G1 X78.260 Y141.068 E3.87368
G1 X78.820 Y140.563 E3.94067
G1 X79.383 Y140.239 E3.99833
G1 X79.728 Y140.757 F7800.000
G1 X80.320 Y140.565 F480.000 E4.05364
G1 X80.940 Y140.500 E4.10893
G1 X81.559 Y140.565 E4.16421
G1 X82.152 Y140.757 E4.21953
G1 X82.679 Y141.062 E4.27358
G1 X83.154 Y141.485 E4.33005
G1 X83.521 Y141.991 E4.38555
G1 X83.774 Y142.559 E4.44081
G1 X83.904 Y143.170 E4.49623
G1 X83.904 Y143.792 E4.55151
G1 X83.774 Y144.402 E4.60682
G1 X83.521 Y144.971 E4.66218
G1 X83.155 Y145.475 E4.71746
G1 X82.692 Y145.892 E4.77279
G1 X82.152 Y146.203 E4.82808
G1 X81.560 Y146.397 E4.88342
G1 X80.940 Y146.462 E4.93878
G1 X80.320 Y146.397 E4.99413
G1 X79.727 Y146.203 E5.04946
G1 X79.188 Y145.892 E5.10475
G1 X78.725 Y145.475 E5.16008
G1 X78.358 Y144.971 E5.21536
G1 X78.105 Y144.402 E5.27073
G1 X77.975 Y143.792 E5.32603
G1 X77.975 Y143.170 E5.38131
G1 X78.105 Y142.559 E5.43673
G1 X78.358 Y141.991 E5.49199
G1 X78.724 Y141.486 E5.54731
G1 X79.188 Y141.069 E5.60268
G1 X79.637 Y140.810 E5.64871
G1 F1800.000 E3.64871
G1 Z1.325 F7800.000
G92 E0
G1 X73.059 Y129.078
G1 Z0.325
G1 F1800.000 E2.00000
G1 X72.406 Y129.455 F480.000 E2.06699
G1 X71.689 Y129.687 E2.13390
G1 X70.940 Y129.765 E2.20076
G1 X70.191 Y129.687 E2.26762
G1 X69.474 Y129.455 E2.33452
G1 X68.820 Y129.078 E2.40151
G1 X68.260 Y128.573 E2.46850
G1 X67.817 Y127.963 E2.53539
G1 X67.511 Y127.275 E2.60224
G1 X67.354 Y126.536 E2.66928
G1 X67.354 Y125.783 E2.73615
G1 X67.511 Y125.046 E2.80304
G1 X67.817 Y124.357 E2.87003
G1 X68.261 Y123.748 E2.93690
G1 X68.820 Y123.243 E3.00381
G1 X69.473 Y122.867 E3.07068
G1 X70.189 Y122.633 E3.13761
G1 X70.940 Y122.555 E3.20459
G1 X71.690 Y122.633 E3.27156
G1 X72.407 Y122.867 E3.33851
G1 X73.059 Y123.243 E3.40537
G1 X73.619 Y123.748 E3.47229
G1 X74.062 Y124.357 E3.53916
G1 X74.369 Y125.046 E3.60614
G1 X74.525 Y125.783 E3.67304
G1 X74.525 Y126.536 E3.73991
G1 X74.369 Y127.275 E3.80694
G1 X74.062 Y127.963 E3.87380
G1 X73.620 Y128.573 E3.94069
G1 X73.137 Y129.007 E3.99836
G1 X72.692 Y128.572 F7800.000
G1 X72.152 Y128.884 F480.000 E4.05371
G1 X71.559 Y129.076 E4.10903
G1 X70.940 Y129.141 E4.16432
G1 X70.851 Y129.131 E4.17221
G1 X70.851 Y129.131 E4.17221
G1 X70.320 Y129.076 E4.21960
G1 X69.728 Y128.884 E4.27491
G1 X69.188 Y128.572 E4.33027
G1 X68.724 Y128.155 E4.38563
G1 X68.358 Y127.650 E4.44096
G1 X68.105 Y127.082 E4.49622
G1 X67.975 Y126.471 E4.55164
G1 X67.975 Y125.849 E4.60691
G1 X68.105 Y125.239 E4.66222
G1 X68.358 Y124.670 E4.71759
G1 X68.725 Y124.166 E4.77287
G1 X69.188 Y123.749 E4.82819
G1 X69.727 Y123.438 E4.88348
G1 X70.320 Y123.244 E4.93882
G1 X70.940 Y123.179 E4.99417
G1 X71.560 Y123.244 E5.04952
G1 X72.152 Y123.438 E5.10487
G1 X72.692 Y123.749 E5.16016
G1 X73.155 Y124.166 E5.21548
G1 X73.521 Y124.670 E5.27076
G1 X73.774 Y125.239 E5.32613
G1 X73.904 Y125.849 E5.38143
G1 X73.904 Y126.471 E5.43671
G1 X73.774 Y127.082 E5.49213
G1 X73.521 Y127.650 E5.54739
G1 X73.155 Y128.155 E5.60272
G1 X72.770 Y128.502 E5.64876
G1 F1800.000 E3.64876
G1 Z1.325 F7800.000
G92 E0
G1 X47.246 Y126.536
G1 Z0.325
G1 F1800.000 E2.00000
G1 X47.089 Y127.275 F480.000 E2.06704
G1 X46.783 Y127.963 E2.13389
G1 X46.340 Y128.573 E2.20078
G1 X45.780 Y129.078 E2.26777
G1 X45.126 Y129.455 E2.33476
G1 X44.409 Y129.687 E2.40166
G1 X43.660 Y129.765 E2.46852
G1 X42.911 Y129.687 E2.53537
G1 X42.194 Y129.455 E2.60229
G1 X41.541 Y129.078 E2.66928
G1 X40.980 Y128.573 E2.73627
G1 X40.538 Y127.963 E2.80316
G1 X40.231 Y127.275 E2.87001
G1 X40.075 Y126.536 E2.93705
G1 X40.075 Y125.783 E3.00392
G1 X40.231 Y125.046 E3.07081
G1 X40.538 Y124.357 E3.13780
G1 X40.981 Y123.748 E3.20467
G1 X41.541 Y123.243 E3.27158
G1 X42.193 Y122.867 E3.33845
G1 X42.910 Y122.633 E3.40539
G1 X43.660 Y122.555 E3.47237
G1 X44.411 Y122.633 E3.53935
G1 X45.127 Y122.867 E3.60628
G1 X45.780 Y123.243 E3.67314
G1 X46.339 Y123.748 E3.74006
G1 X46.783 Y124.357 E3.80693
G1 X47.089 Y125.046 E3.87391
G1 X47.246 Y125.783 E3.94081
G1 X47.246 Y126.431 E3.99836
G1 X46.625 Y126.471 F7800.000
G1 X46.495 Y127.082 F480.000 E4.05378
G1 X46.242 Y127.650 E4.10904
G1 X45.876 Y128.155 E4.16436
G1 X45.412 Y128.572 E4.21972
G1 X44.872 Y128.884 E4.27508
G1 X44.280 Y129.076 E4.33039
G1 X43.660 Y129.141 E4.38568
G1 X43.041 Y129.076 E4.44096
G1 X42.448 Y128.884 E4.49628
G1 X41.908 Y128.572 E4.55164
G1 X41.445 Y128.155 E4.60700
G1 X41.079 Y127.650 E4.66232
G1 X40.826 Y127.082 E4.71758
G1 X40.696 Y126.471 E4.77300
G1 X40.696 Y125.849 E4.82828
G1 X40.826 Y125.239 E4.88359
G1 X41.079 Y124.670 E4.93896
G1 X41.445 Y124.166 E4.99423
G1 X41.908 Y123.749 E5.04956
G1 X42.448 Y123.438 E5.10485
G1 X43.040 Y123.244 E5.16019
G1 X43.660 Y123.179 E5.21555
G1 X44.280 Y123.244 E5.27090
G1 X44.873 Y123.438 E5.32624
G1 X45.412 Y123.749 E5.38153
G1 X45.875 Y124.166 E5.43685
G1 X46.242 Y124.670 E5.49213
G1 X46.495 Y125.239 E5.54750
G1 X46.625 Y125.849 E5.60280
G1 X46.625 Y126.366 E5.64876
G1 F1800.000 E3.64876
G1 Z1.325 F7800.000
G92 E0
G1 X35.780 Y140.563
G1 Z0.325
G1 F1800.000 E2.00000
G1 X36.340 Y141.068 F480.000 E2.06699
G1 X36.783 Y141.678 E2.13388
G1 X37.089 Y142.366 E2.20073
G1 X37.246 Y143.105 E2.26777
G1 X37.246 Y143.858 E2.33464
G1 X37.089 Y144.595 E2.40153
G1 X36.783 Y145.284 E2.46852
G1 X36.339 Y145.893 E2.53539
G1 X35.780 Y146.398 E2.60230
G1 X35.127 Y146.774 E2.66917
G1 X34.411 Y147.008 E2.73610
G1 X33.660 Y147.086 E2.80308
G1 X32.910 Y147.008 E2.87006
G1 X32.193 Y146.774 E2.93700
G1 X31.541 Y146.398 E3.00387
G1 X30.981 Y145.893 E3.07078
G1 X30.538 Y145.284 E3.13765
G1 X30.231 Y144.595 E3.20464
G1 X30.075 Y143.858 E3.27153
G1 X30.075 Y143.105 E3.33840
G1 X30.231 Y142.366 E3.40543
G1 X30.538 Y141.678 E3.47229
G1 X30.980 Y141.068 E3.53918
G1 X31.541 Y140.563 E3.60617
G1 X32.194 Y140.186 E3.67316
G1 X32.911 Y139.954 E3.74007
G1 X33.660 Y139.876 E3.80693
G1 X34.409 Y139.954 E3.87379
G1 X35.126 Y140.186 E3.94069
G1 X35.689 Y140.511 E3.99836
G1 X35.412 Y141.069 F7800.000
G1 X35.876 Y141.486 F480.000 E4.05372
G1 X36.242 Y141.991 E4.10904
G1 X36.495 Y142.559 E4.16430
G1 X36.625 Y143.170 E4.21972
G1 X36.625 Y143.792 E4.27500
G1 X36.495 Y144.402 E4.33031
G1 X36.242 Y144.971 E4.38568
G1 X35.875 Y145.475 E4.44095
G1 X35.412 Y145.892 E4.49628
G1 X34.873 Y146.203 E4.55157
G1 X34.280 Y146.397 E4.60690
G1 X33.660 Y146.462 E4.66226
G1 X33.040 Y146.397 E4.71761
G1 X32.448 Y146.203 E4.77295
G1 X31.908 Y145.892 E4.82825
G1 X31.445 Y145.475 E4.88357
G1 X31.079 Y144.971 E4.93885
G1 X30.826 Y144.402 E4.99422
G1 X30.696 Y143.792 E5.04952
G1 X30.696 Y143.170 E5.10480
G1 X30.826 Y142.559 E5.16022
G1 X31.079 Y141.991 E5.21548
G1 X31.445 Y141.486 E5.27080
G1 X31.908 Y141.069 E5.32617
G1 X32.448 Y140.757 E5.38153
G1 X33.041 Y140.565 E5.43684
G1 X33.660 Y140.500 E5.49213
G1 X34.280 Y140.565 E5.54742
G1 X34.872 Y140.757 E5.60272
G1 X35.321 Y141.016 E5.64876
G1 F1800.000 E3.64876
G1 Z1.325 F7800.000
G92 E0
G1 X21.327 Y146.785
G1 Z0.325
G1 F1800.000 E2.00000
G1 X40.561 Y113.471 F1680.000 E5.41532
G1 X74.039 Y113.471 E8.38764
G1 X93.273 Y146.785 E11.80296
G1 X77.406 Y155.946 E13.42959
G1 X77.043 Y155.605 E13.47381
G1 X73.896 Y153.318 E13.81917
G1 X70.488 Y151.444 E14.16452
G1 X66.871 Y150.012 E14.50986
G1 X63.104 Y149.045 E14.85521
G1 X59.245 Y148.558 E15.20055
G1 X55.355 Y148.558 E15.54588
G1 X51.496 Y149.045 E15.89122
G1 X47.729 Y150.012 E16.23657
G1 X44.112 Y151.444 E16.58192
G1 X40.704 Y153.318 E16.92726
G1 X37.557 Y155.605 E17.27262
G1 X37.194 Y155.946 E17.31684
G1 X21.418 Y146.838 E18.93415
G1 X20.478 Y147.013 F7800.000
G1 X40.202 Y112.850 F1680.000 E22.43650
G1 X74.398 Y112.850 E25.47253
G1 X94.122 Y147.013 E28.97489
G1 X77.317 Y156.715 E30.69766
G1 X76.646 Y156.085 E30.77939
G1 X73.563 Y153.844 E31.11781
G1 X70.223 Y152.008 E31.45621
G1 X66.679 Y150.604 E31.79461
G1 X62.987 Y149.657 E32.13302
G1 X59.206 Y149.179 E32.47141
G1 X55.394 Y149.179 E32.80981
G1 X51.613 Y149.657 E33.14820
G1 X47.921 Y150.604 E33.48660
G1 X44.377 Y152.008 E33.82501
G1 X41.037 Y153.844 E34.16341
G1 X37.954 Y156.085 E34.50183
G1 X37.283 Y156.715 E34.58356
G1 X20.569 Y147.065 E36.29701
G1 F1800.000 E34.29701
G1 Z1.325 F7800.000
G92 E0
G1 X32.911 Y97.007
G1 Z0.325
G1 F1800.000 E2.00000
G1 X32.194 Y96.775 F480.000 E2.06691
G1 X31.541 Y96.398 E2.13384
G1 X30.981 Y95.893 E2.20077
G1 X30.538 Y95.284 E2.26768
G1 X30.231 Y94.595 E2.33460
G1 X30.075 Y93.858 E2.40152
G1 X30.075 Y93.104 E2.46845
G1 X30.231 Y92.367 E2.53537
G1 X30.538 Y91.678 E2.60228
G1 X30.981 Y91.068 E2.66921
G1 X31.541 Y90.564 E2.73613
G1 X32.194 Y90.187 E2.80306
G1 X32.911 Y89.954 E2.86999
G1 X33.660 Y89.875 E2.93690
G1 X34.410 Y89.954 E3.00382
G1 X35.127 Y90.187 E3.07075
G1 X35.780 Y90.564 E3.13767
G1 X36.340 Y91.068 E3.20459
G1 X36.783 Y91.678 E3.27152
G1 X37.089 Y92.367 E3.33843
G1 X37.246 Y93.104 E3.40535
G1 X37.246 Y93.858 E3.47228
G1 X37.089 Y94.595 E3.53920
G1 X36.783 Y95.284 E3.60612
G1 X36.340 Y95.893 E3.67304
G1 X35.780 Y96.398 E3.73996
G1 X35.127 Y96.774 E3.80687
G1 X34.410 Y97.007 E3.87379
G1 X33.660 Y97.086 E3.94074
G1 X33.015 Y97.018 E3.99833
G1 X33.041 Y96.396 F7800.000
G1 X32.448 Y96.204 F480.000 E4.05365
G1 X31.908 Y95.892 E4.10897
G1 X31.445 Y95.475 E4.16430
G1 X31.079 Y94.971 E4.21962
G1 X30.826 Y94.402 E4.27494
G1 X30.696 Y93.792 E4.33026
G1 X30.696 Y93.169 E4.38559
G1 X30.826 Y92.560 E4.44091
G1 X31.079 Y91.991 E4.49623
G1 X31.445 Y91.486 E4.55156
G1 X31.908 Y91.069 E4.60688
G1 X32.448 Y90.758 E4.66221
G1 X33.041 Y90.565 E4.71754
G1 X33.660 Y90.500 E4.77286
G1 X34.280 Y90.565 E4.82818
G1 X34.873 Y90.758 E4.88350
G1 X35.412 Y91.069 E4.93883
G1 X35.875 Y91.486 E4.99415
G1 X36.242 Y91.991 E5.04947
G1 X36.495 Y92.560 E5.10480
G1 X36.625 Y93.169 E5.16012
G1 X36.625 Y93.792 E5.21544
G1 X36.495 Y94.402 E5.27077
G1 X36.242 Y94.971 E5.32609
G1 X35.875 Y95.475 E5.38141
G1 X35.412 Y95.892 E5.43673
G1 X34.873 Y96.204 E5.49205
G1 X34.280 Y96.396 E5.54737
G1 X33.660 Y96.461 E5.60271
G1 X33.145 Y96.407 E5.64870
G1 F1800.000 E3.64870
G1 Z1.325 F7800.000
G92 E0
G1 X42.194 Y79.454
G1 Z0.325
G1 F1800.000 E2.00000
G1 X41.541 Y79.077 F480.000 E2.06692
G1 X40.981 Y78.573 E2.13383
G1 X40.538 Y77.963 E2.20076
G1 X40.231 Y77.274 E2.26769
G1 X40.075 Y76.537 E2.33461
G1 X40.075 Y75.783 E2.40152
G1 X40.231 Y75.046 E2.46844
G1 X40.538 Y74.358 E2.53536
G1 X40.981 Y73.748 E2.60229
G1 X41.541 Y73.243 E2.66921
G1 X42.194 Y72.866 E2.73613
G1 X42.911 Y72.633 E2.80306
G1 X43.660 Y72.555 E2.86998
G1 X44.410 Y72.633 E2.93690
G1 X45.127 Y72.867 E3.00383
G1 X45.780 Y73.243 E3.07075
G1 X46.340 Y73.748 E3.13766
G1 X46.783 Y74.358 E3.20459
G1 X47.089 Y75.046 E3.27151
G1 X47.246 Y75.783 E3.33843
G1 X47.246 Y76.537 E3.40535
G1 X47.089 Y77.274 E3.47226
G1 X46.781 Y77.966 E3.53952
G1 X46.327 Y78.584 E3.60756
G1 X45.780 Y79.077 E3.67301
G1 X45.127 Y79.454 E3.73993
