; generated by Slic3r 0.8.2 on 2012-07-12 at 06:24:43

; layer_height = 0.35
; perimeters = 1
; solid_layers = 3
; fill_density = 0.6
; nozzle_diameter = 0.5
; filament_diameter = 1.75
; extrusion_multiplier = 1
; perimeter_speed = 70
; infill_speed = 80
; travel_speed = 130
; extrusion_width_ratio = 0
; scale = 1
; single wall width = 0.58mm

M104 S240 ; set temperature
G28 ; home all axes
M109 S240 ; wait for temperature to be reached
G90 ; use absolute coordinates
G21 ; set units to millimeters
G92 E0 ; reset extrusion distance
M82 ; use absolute distances for extrusion
G1 Z0.350 F7800.000
G1 X11.780 Y49.760
G1 F4800.000 E1.50000
G1 X12.280 Y49.730 F2100.000 E1.54089
G1 X167.960 Y49.740 E14.24946
G1 X168.450 Y49.780 E14.28959
G1 X168.940 Y49.870 E14.33026
G1 X169.190 Y49.930 E14.35125
G1 X169.420 Y50.000 E14.37088
G1 X170.120 Y50.280 E14.43242
G1 X170.560 Y50.520 E14.47334
G1 X170.770 Y50.650 E14.49350
G1 X171.170 Y50.940 E14.53383
G1 X171.360 Y51.100 E14.55411
G1 X171.890 Y51.630 E14.61529
G1 X172.050 Y51.820 E14.63557
G1 X172.340 Y52.220 E14.67590
G1 X172.470 Y52.430 E14.69606
G1 X172.710 Y52.870 E14.73698
G1 X172.990 Y53.570 E14.79852
G1 X173.060 Y53.800 E14.81815
G1 X173.170 Y54.290 E14.85914
G1 X173.210 Y54.540 E14.87981
G1 X173.260 Y55.280 E14.94036
G1 X173.250 Y100.880 E18.66281
G1 X173.200 Y101.410 E18.70626
G1 X173.100 Y101.940 E18.75029
G1 X173.030 Y102.190 E18.77149
G1 X172.850 Y102.700 E18.81564
G1 X172.620 Y103.190 E18.85982
G1 X155.770 Y128.940 E21.37191
G1 X155.480 Y129.320 E21.41094
G1 X154.380 Y130.360 E21.53451
G1 X154.000 Y130.650 E21.57353
G1 X153.100 Y131.190 E21.65921
G1 X152.510 Y131.480 E21.71288
G1 X152.310 Y131.560 E21.73046
G1 X151.100 Y131.950 E21.83424
G1 X150.620 Y132.040 E21.87411
G1 X149.800 Y132.130 E21.94145
G1 X149.230 Y132.160 E21.98805
G1 X30.760 Y132.160 E31.65907
G1 X29.370 Y132.040 E31.77296
G1 X28.890 Y131.950 E31.81282
G1 X27.680 Y131.560 E31.91660
G1 X27.280 Y131.390 E31.95208
G1 X26.400 Y130.910 E32.03391
G1 X25.990 Y130.650 E32.07354
G1 X25.610 Y130.360 E32.11257
G1 X24.670 Y129.490 E32.21712
G1 X24.510 Y129.320 E32.23618
G1 X7.500 Y103.420 E34.76567
G1 X7.250 Y102.950 E34.80913
G1 X7.140 Y102.700 E34.83143
G1 X6.960 Y102.190 E34.87558
G1 X6.890 Y101.940 E34.89677
G1 X6.790 Y101.410 E34.94080
G1 X6.740 Y100.880 E34.98425
G1 X6.740 Y55.030 E38.72711
G1 X6.780 Y54.540 E38.76724
G1 X6.870 Y54.050 E38.80791
G1 X6.930 Y53.800 E38.82890
G1 X7.000 Y53.570 E38.84853
G1 X7.280 Y52.870 E38.91007
G1 X7.520 Y52.430 E38.95099
G1 X7.650 Y52.220 E38.97115
G1 X7.940 Y51.820 E39.01148
G1 X8.100 Y51.630 E39.03176
G1 X8.630 Y51.100 E39.09294
G1 X8.820 Y50.940 E39.11322
G1 X9.220 Y50.650 E39.15355
G1 X9.430 Y50.520 E39.17371
G1 X9.870 Y50.280 E39.21463
G1 X10.570 Y50.000 E39.27617
G1 X10.800 Y49.930 E39.29580
G1 X11.290 Y49.820 E39.33679
G1 X11.540 Y49.780 E39.35746
G1 X11.694 Y49.767 E39.37005
G1 X11.820 Y50.300 F7800.000
G1 X12.280 Y50.280 F2100.000 E39.40763
G1 X168.170 Y50.300 E52.13335
G1 X168.850 Y50.410 E52.18958
G1 X169.080 Y50.470 E52.20899
G1 X169.520 Y50.620 E52.24693
G1 X169.940 Y50.800 E52.28424
G1 X170.340 Y51.030 E52.32190
G1 X170.720 Y51.290 E52.35949
G1 X171.080 Y51.580 E52.39722
G1 X171.250 Y51.740 E52.41628
G1 X171.410 Y51.910 E52.43534
G1 X171.700 Y52.270 E52.47308
G1 X171.960 Y52.650 E52.51066
G1 X172.190 Y53.050 E52.54833
G1 X172.370 Y53.470 E52.58563
G1 X172.520 Y53.910 E52.62358
G1 X172.580 Y54.140 E52.64298
G1 X172.690 Y54.820 E52.69921
G1 X172.700 Y100.870 E56.45840
G1 X172.650 Y101.400 E56.50186
G1 X172.540 Y101.910 E56.54445
G1 X172.370 Y102.410 E56.58756
G1 X172.160 Y102.890 E56.63033
G1 X155.320 Y128.620 E59.14060
G1 X155.060 Y128.960 E59.17554
G1 X154.920 Y129.120 E59.19290
G1 X154.030 Y129.940 E59.29169
G1 X153.690 Y130.200 E59.32663
G1 X153.510 Y130.320 E59.34429
G1 X152.660 Y130.810 E59.42438
G1 X152.120 Y131.050 E59.47262
G1 X151.180 Y131.360 E59.55342
G1 X150.760 Y131.460 E59.58866
G1 X150.540 Y131.500 E59.60692
G1 X149.230 Y131.610 E59.71423
G1 X30.760 Y131.610 E69.38525
G1 X29.450 Y131.500 E69.49257
G1 X29.230 Y131.460 E69.51082
G1 X28.810 Y131.360 E69.54607
G1 X27.870 Y131.050 E69.62687
G1 X27.330 Y130.810 E69.67511
G1 X26.480 Y130.320 E69.75520
G1 X26.300 Y130.200 E69.77286
G1 X25.960 Y129.940 E69.80780
G1 X25.070 Y129.120 E69.90659
G1 X24.930 Y128.960 E69.92394
G1 X24.220 Y127.990 E70.02207
G1 X7.960 Y103.120 E72.44768
G1 X7.830 Y102.890 E72.46925
G1 X7.620 Y102.410 E72.51202
G1 X7.450 Y101.910 E72.55513
G1 X7.340 Y101.400 E72.59772
G1 X7.290 Y100.870 E72.64117
G1 X7.300 Y54.820 E76.40036
G1 X7.410 Y54.140 E76.45659
G1 X7.470 Y53.910 E76.47599
G1 X7.620 Y53.470 E76.51394
G1 X7.800 Y53.050 E76.55124
G1 X8.030 Y52.650 E76.58891
G1 X8.290 Y52.270 E76.62650
G1 X8.580 Y51.910 E76.66423
G1 X8.740 Y51.740 E76.68329
G1 X8.910 Y51.580 E76.70235
G1 X9.270 Y51.290 E76.74009
G1 X9.650 Y51.030 E76.77767
G1 X10.050 Y50.800 E76.81534
G1 X10.470 Y50.620 E76.85264
G1 X10.910 Y50.470 E76.89059
G1 X11.140 Y50.410 E76.90999
G1 X11.734 Y50.311 E76.95915
G1 F4800.000 E75.45915
G1 Z1.350 F7800.000
G92 E0
G1 X44.304 Y105.248
G1 Z0.350
G1 F4800.000 E1.50000
G1 X45.904 Y104.324 F2100.000 E1.65088
G1 X47.662 Y103.753 E1.80175
G1 X49.500 Y103.559 E1.95262
G1 X51.338 Y103.753 E2.10349
G1 X53.096 Y104.324 E2.25437
G1 X54.696 Y105.248 E2.40524
G1 X56.070 Y106.485 E2.55612
G1 X57.156 Y107.980 E2.70699
G1 X57.908 Y109.668 E2.85786
G1 X58.292 Y111.476 E3.00873
G1 X58.292 Y113.324 E3.15960
G1 X57.908 Y115.132 E3.31047
G1 X57.156 Y116.820 E3.46135
G1 X56.070 Y118.315 E3.61222
G1 X54.696 Y119.552 E3.76309
G1 X53.096 Y120.476 E3.91397
G1 X51.338 Y121.047 E4.06484
G1 X49.500 Y121.241 E4.21571
G1 X47.662 Y121.047 E4.36659
G1 X45.904 Y120.476 E4.51746
G1 X44.304 Y119.552 E4.66834
G1 X42.930 Y118.315 E4.81921
G1 X41.844 Y116.820 E4.97008
G1 X41.092 Y115.132 E5.12095
G1 X40.708 Y113.324 E5.27183
G1 X40.708 Y111.476 E5.42269
G1 X41.092 Y109.668 E5.57357
G1 X41.844 Y107.980 E5.72444
G1 X42.930 Y106.485 E5.87531
G1 X44.239 Y105.306 E6.01911
G1 X44.627 Y105.693 F7800.000
G1 X46.128 Y104.826 F2100.000 E6.16060
G1 X47.776 Y104.291 E6.30208
G1 X49.500 Y104.110 E6.44356
G1 X51.224 Y104.291 E6.58505
G1 X52.872 Y104.826 E6.72653
G1 X54.373 Y105.693 E6.86802
G1 X55.661 Y106.853 E7.00950
G1 X56.680 Y108.255 E7.15098
G1 X57.385 Y109.838 E7.29247
G1 X57.745 Y111.533 E7.43395
G1 X57.745 Y113.267 E7.57543
G1 X57.385 Y114.962 E7.71691
G1 X56.680 Y116.545 E7.85840
G1 X55.661 Y117.947 E7.99988
G1 X54.373 Y119.107 E8.14136
G1 X52.872 Y119.974 E8.28285
G1 X51.224 Y120.509 E8.42433
G1 X49.500 Y120.690 E8.56582
G1 X47.776 Y120.509 E8.70730
G1 X46.128 Y119.974 E8.84878
G1 X44.627 Y119.107 E8.99027
G1 X43.339 Y117.947 E9.13176
G1 X42.320 Y116.545 E9.27323
G1 X41.615 Y114.962 E9.41472
G1 X41.255 Y113.267 E9.55620
G1 X41.255 Y111.533 E9.69768
G1 X41.615 Y109.838 E9.83917
G1 X42.320 Y108.255 E9.98065
G1 X43.339 Y106.853 E10.12213
G1 X44.563 Y105.751 E10.25654
G1 F4800.000 E8.75654
G1 Z1.350 F7800.000
G92 E0
G1 X28.880 Y124.980
G1 Z0.350
G1 F4800.000 E1.50000
G1 X28.696 Y124.567 F2100.000 E1.53685
G1 X28.602 Y124.126 E1.57370
G1 X28.602 Y115.174 E2.30443
G1 X28.696 Y114.733 E2.34122
G1 X28.883 Y114.317 E2.37851
G1 X29.145 Y113.955 E2.41498
G1 X29.481 Y113.653 E2.45183
G1 X29.872 Y113.427 E2.48868
G1 X30.301 Y113.288 E2.52554
G1 X31.586 Y113.153 E2.63101
G1 X31.586 Y100.064 E3.69947
G1 X12.836 Y100.064 E5.23008
G1 X12.836 Y95.736 E5.58339
G1 X86.164 Y95.736 E11.56935
G1 X86.164 Y100.064 E11.92265
G1 X67.414 Y100.064 E13.45327
G1 X67.414 Y113.153 E14.52173
G1 X68.699 Y113.288 E14.62720
G1 X69.128 Y113.427 E14.66406
G1 X69.519 Y113.653 E14.70091
G1 X69.855 Y113.955 E14.73775
G1 X70.120 Y114.320 E14.77462
G1 X70.304 Y114.733 E14.81146
G1 X70.398 Y115.174 E14.84832
G1 X70.398 Y124.126 E15.57905
G1 X70.304 Y124.567 E15.61590
G1 X70.120 Y124.980 E15.65275
G1 X69.855 Y125.345 E15.68961
G1 X69.519 Y125.647 E15.72645
G1 X69.128 Y125.873 E15.76330
G1 X68.699 Y126.012 E15.80016
G1 X68.206 Y126.064 E15.84061
G1 X30.794 Y126.064 E18.89468
G1 X30.301 Y126.012 E18.93512
G1 X29.872 Y125.873 E18.97198
G1 X29.481 Y125.647 E19.00883
G1 X29.145 Y125.345 E19.04568
G1 X28.931 Y125.050 E19.07547
G1 X28.403 Y125.255 F7800.000
G1 X28.173 Y124.737 F2100.000 E19.12170
G1 X28.055 Y124.183 E19.16795
G1 X28.055 Y115.117 E19.90807
G1 X28.173 Y114.563 E19.95429
G1 X28.406 Y114.041 E20.00096
G1 X28.736 Y113.587 E20.04678
G1 X29.157 Y113.208 E20.09302
G1 X29.648 Y112.925 E20.13926
G1 X30.187 Y112.750 E20.18551
G1 X31.039 Y112.660 E20.25545
G1 X31.039 Y100.611 E21.23904
G1 X12.289 Y100.611 E22.76965
G1 X12.289 Y95.189 E23.21229
G1 X86.711 Y95.189 E29.28758
G1 X86.711 Y100.611 E29.73022
G1 X67.961 Y100.611 E31.26083
G1 X67.961 Y112.660 E32.24441
G1 X68.813 Y112.750 E32.31436
G1 X69.352 Y112.925 E32.36061
G1 X69.843 Y113.208 E32.40685
G1 X70.264 Y113.587 E32.45308
G1 X70.597 Y114.045 E32.49933
G1 X70.827 Y114.563 E32.54557
G1 X70.945 Y115.117 E32.59181
G1 X70.945 Y124.183 E33.33193
G1 X70.827 Y124.737 E33.37818
G1 X70.597 Y125.255 E33.42441
G1 X70.264 Y125.713 E33.47066
G1 X69.843 Y126.092 E33.51690
G1 X69.352 Y126.375 E33.56314
G1 X68.813 Y126.550 E33.60938
G1 X68.235 Y126.611 E33.65686
G1 X30.765 Y126.611 E36.71562
G1 X30.187 Y126.550 E36.76310
G1 X29.648 Y126.375 E36.80934
G1 X29.157 Y126.092 E36.85558
G1 X28.736 Y125.713 E36.90182
G1 X28.454 Y125.325 E36.94099
G1 F4800.000 E35.44099
G1 Z1.350 F7800.000
G92 E0
G1 X45.904 Y80.576
G1 Z0.350
G1 F4800.000 E1.50000
G1 X44.304 Y79.652 F2100.000 E1.65088
G1 X42.930 Y78.415 E1.80175
G1 X41.844 Y76.920 E1.95262
G1 X41.092 Y75.232 E2.10349
G1 X40.708 Y73.424 E2.25437
G1 X40.708 Y71.576 E2.40523
G1 X41.092 Y69.768 E2.55611
G1 X41.844 Y68.080 E2.70698
G1 X42.930 Y66.585 E2.85785
G1 X44.304 Y65.348 E3.00872
G1 X45.904 Y64.424 E3.15960
G1 X47.662 Y63.853 E3.31047
G1 X49.500 Y63.659 E3.46135
G1 X51.338 Y63.853 E3.61222
G1 X53.096 Y64.424 E3.76309
G1 X54.696 Y65.348 E3.91397
G1 X56.070 Y66.585 E4.06484
G1 X57.156 Y68.080 E4.21571
G1 X57.908 Y69.768 E4.36659
G1 X58.292 Y71.576 E4.51746
G1 X58.292 Y73.424 E4.66833
G1 X57.908 Y75.232 E4.81920
G1 X57.156 Y76.920 E4.97008
G1 X56.070 Y78.415 E5.12094
G1 X54.696 Y79.652 E5.27182
G1 X53.096 Y80.576 E5.42269
G1 X51.338 Y81.147 E5.57357
G1 X49.500 Y81.341 E5.72444
G1 X47.662 Y81.147 E5.87531
G1 X45.987 Y80.603 E6.01911
G1 X46.128 Y80.074 F7800.000
G1 X44.627 Y79.207 F2100.000 E6.16060
G1 X43.339 Y78.047 E6.30208
G1 X42.320 Y76.645 E6.44356
G1 X41.615 Y75.062 E6.58505
G1 X41.255 Y73.367 E6.72653
G1 X41.255 Y71.633 E6.86801
G1 X41.615 Y69.938 E7.00949
G1 X42.320 Y68.355 E7.15098
G1 X43.339 Y66.953 E7.29246
G1 X44.627 Y65.793 E7.43394
G1 X46.128 Y64.926 E7.57543
G1 X47.776 Y64.391 E7.71691
G1 X49.500 Y64.210 E7.85840
G1 X51.224 Y64.391 E7.99988
G1 X52.872 Y64.926 E8.14136
G1 X54.373 Y65.793 E8.28285
G1 X55.661 Y66.953 E8.42434
G1 X56.680 Y68.355 E8.56581
G1 X57.385 Y69.938 E8.70730
G1 X57.745 Y71.633 E8.84878
G1 X57.745 Y73.367 E8.99026
G1 X57.385 Y75.062 E9.13174
G1 X56.680 Y76.645 E9.27323
G1 X55.661 Y78.047 E9.41471
G1 X54.373 Y79.207 E9.55620
G1 X52.872 Y80.074 E9.69768
G1 X51.224 Y80.609 E9.83917
G1 X49.500 Y80.790 E9.98065
G1 X47.776 Y80.609 E10.12213
G1 X46.210 Y80.100 E10.25654
G1 F4800.000 E8.75654
G1 Z1.350 F7800.000
G92 E0
G1 X29.145 Y85.445
G1 Z0.350
G1 F4800.000 E1.50000
G1 X28.880 Y85.080 F2100.000 E1.53686
G1 X28.696 Y84.667 E1.57371
G1 X28.602 Y84.226 E1.61056
G1 X28.602 Y75.274 E2.34129
G1 X28.696 Y74.833 E2.37815
G1 X28.880 Y74.420 E2.41499
G1 X29.145 Y74.055 E2.45185
G1 X29.481 Y73.753 E2.48870
G1 X29.872 Y73.527 E2.52555
G1 X30.301 Y73.388 E2.56241
G1 X31.586 Y73.253 E2.66788
G1 X31.586 Y60.164 E3.73634
G1 X12.836 Y60.164 E5.26695
G1 X12.836 Y55.836 E5.62026
G1 X86.164 Y55.836 E11.60622
G1 X86.164 Y60.164 E11.95953
G1 X67.414 Y60.164 E13.49014
G1 X67.414 Y73.253 E14.55860
G1 X68.699 Y73.388 E14.66407
G1 X69.128 Y73.527 E14.70093
G1 X69.519 Y73.753 E14.73778
G1 X69.855 Y74.055 E14.77463
G1 X70.120 Y74.420 E14.81149
G1 X70.304 Y74.833 E14.84833
G1 X70.398 Y75.274 E14.88519
G1 X70.398 Y84.226 E15.61592
G1 X70.304 Y84.667 E15.65277
G1 X70.120 Y85.080 E15.68962
G1 X69.855 Y85.445 E15.72648
G1 X69.519 Y85.747 E15.76333
G1 X69.128 Y85.973 E15.80017
G1 X68.699 Y86.112 E15.83703
G1 X68.206 Y86.164 E15.87748
G1 X30.794 Y86.164 E18.93155
G1 X30.301 Y86.112 E18.97199
G1 X29.872 Y85.973 E19.00885
G1 X29.481 Y85.747 E19.04570
G1 X29.210 Y85.503 E19.07548
G1 X28.736 Y85.813 F7800.000
G1 X28.403 Y85.355 F2100.000 E19.12172
G1 X28.173 Y84.837 E19.16796
G1 X28.055 Y84.283 E19.21420
G1 X28.055 Y75.217 E19.95432
G1 X28.173 Y74.663 E20.00057
G1 X28.403 Y74.145 E20.04680
G1 X28.736 Y73.687 E20.09305
G1 X29.157 Y73.308 E20.13929
G1 X29.648 Y73.025 E20.18553
G1 X30.187 Y72.850 E20.23177
G1 X31.039 Y72.760 E20.30172
G1 X31.039 Y60.711 E21.28530
G1 X12.289 Y60.711 E22.81591
G1 X12.289 Y55.289 E23.25855
G1 X86.711 Y55.289 E29.33385
G1 X86.711 Y60.711 E29.77649
G1 X67.961 Y60.711 E31.30710
G1 X67.961 Y72.760 E32.29068
G1 X68.813 Y72.850 E32.36063
G1 X69.352 Y73.025 E32.40687
G1 X69.843 Y73.308 E32.45311
G1 X70.264 Y73.687 E32.49935
G1 X70.597 Y74.145 E32.54560
G1 X70.827 Y74.663 E32.59183
G1 X70.945 Y75.217 E32.63808
G1 X70.945 Y84.283 E33.37820
G1 X70.827 Y84.837 E33.42444
G1 X70.597 Y85.355 E33.47068
G1 X70.264 Y85.813 E33.51693
G1 X69.843 Y86.192 E33.56316
G1 X69.352 Y86.475 E33.60940
G1 X68.813 Y86.650 E33.65565
G1 X68.235 Y86.711 E33.70313
G1 X30.765 Y86.711 E36.76188
G1 X30.187 Y86.650 E36.80936
G1 X29.648 Y86.475 E36.85561
G1 X29.157 Y86.192 E36.90185
G1 X28.801 Y85.871 E36.94101
G1 F4800.000 E35.44101
G1 Z1.350 F7800.000
G92 E0
G1 X121.708 Y73.424
G1 Z0.350
G1 F4800.000 E1.50000
G1 X121.708 Y71.576 F2100.000 E1.65087
G1 X122.092 Y69.768 E1.80174
G1 X122.844 Y68.080 E1.95262
G1 X123.930 Y66.585 E2.10348
G1 X125.304 Y65.348 E2.25436
G1 X126.904 Y64.424 E2.40523
G1 X128.662 Y63.853 E2.55611
G1 X130.500 Y63.659 E2.70698
G1 X132.338 Y63.853 E2.85785
G1 X134.096 Y64.424 E3.00872
G1 X135.696 Y65.348 E3.15960
G1 X137.070 Y66.585 E3.31048
G1 X138.156 Y68.080 E3.46134
G1 X138.908 Y69.768 E3.61222
G1 X139.292 Y71.576 E3.76309
G1 X139.292 Y73.424 E3.91396
G1 X138.908 Y75.232 E4.06483
G1 X138.156 Y76.920 E4.21571
G1 X137.070 Y78.415 E4.36658
G1 X135.696 Y79.652 E4.51745
G1 X134.096 Y80.576 E4.66833
G1 X132.338 Y81.147 E4.81920
G1 X130.500 Y81.341 E4.97007
G1 X128.662 Y81.147 E5.12094
G1 X126.904 Y80.576 E5.27182
G1 X125.304 Y79.652 E5.42269
G1 X123.930 Y78.415 E5.57357
G1 X122.844 Y76.920 E5.72443
G1 X122.092 Y75.232 E5.87531
G1 X121.726 Y73.509 E6.01911
G1 X122.255 Y73.367 F7800.000
G1 X122.255 Y71.633 F2100.000 E6.16059
G1 X122.615 Y69.938 E6.30207
G1 X123.320 Y68.355 E6.44356
G1 X124.339 Y66.953 E6.58504
G1 X125.627 Y65.793 E6.72652
G1 X127.128 Y64.926 E6.86801
G1 X128.776 Y64.391 E7.00949
G1 X130.500 Y64.210 E7.15098
G1 X132.224 Y64.391 E7.29246
G1 X133.872 Y64.926 E7.43394
G1 X135.373 Y65.793 E7.57543
G1 X136.661 Y66.953 E7.71691
G1 X137.680 Y68.355 E7.85839
G1 X138.385 Y69.938 E7.99988
G1 X138.745 Y71.633 E8.14136
G1 X138.745 Y73.367 E8.28284
G1 X138.385 Y75.062 E8.42432
G1 X137.680 Y76.645 E8.56581
G1 X136.661 Y78.047 E8.70729
G1 X135.373 Y79.207 E8.84877
G1 X133.872 Y80.074 E8.99026
G1 X132.224 Y80.609 E9.13174
G1 X130.500 Y80.790 E9.27323
G1 X128.776 Y80.609 E9.41471
G1 X127.128 Y80.074 E9.55619
G1 X125.627 Y79.207 E9.69768
G1 X124.339 Y78.047 E9.83917
G1 X123.320 Y76.645 E9.98065
G1 X122.615 Y75.062 E10.12213
G1 X122.273 Y73.451 E10.25654
G1 F4800.000 E8.75654
G1 Z1.350 F7800.000
G92 E0
G1 X109.880 Y85.080
G1 Z0.350
G1 F4800.000 E1.50000
G1 X109.696 Y84.667 F2100.000 E1.53685
G1 X109.602 Y84.226 E1.57370
G1 X109.602 Y75.274 E2.30443
G1 X109.696 Y74.833 E2.34122
G1 X109.883 Y74.417 E2.37851
G1 X110.145 Y74.055 E2.41498
G1 X110.481 Y73.753 E2.45183
G1 X110.872 Y73.527 E2.48868
G1 X111.301 Y73.388 E2.52554
G1 X112.586 Y73.253 E2.63101
G1 X112.586 Y60.164 E3.69947
G1 X93.836 Y60.164 E5.23008
G1 X93.836 Y55.836 E5.58339
G1 X167.164 Y55.836 E11.56935
G1 X167.164 Y60.164 E11.92265
G1 X148.414 Y60.164 E13.45327
G1 X148.414 Y73.253 E14.52173
