; generated by Slic3r 0.8.2 on 2012-07-12 at 01:29:09

; layer_height = 0.25
; perimeters = 1
; solid_layers = 3
; fill_density = 0.8
; nozzle_diameter = 0.5
; filament_diameter = 1.75
; extrusion_multiplier = 1
; perimeter_speed = 100
; infill_speed = 140
; travel_speed = 140
; extrusion_width_ratio = 0
; scale = 1
; single wall width = 0.70mm

M190 S125 ; wait for bed temperature to be reached
M104 S245 ; set temperature
G28 ; home all axes
M109 S245 ; wait for temperature to be reached
G90 ; use absolute coordinates
G21 ; set units to millimeters
G92 E0 ; reset extrusion distance
M82 ; use absolute distances for extrusion
G1 Z0.250 F8400.000
G1 X11.620 Y49.770
G1 F4800.000 E3.00000
G1 X12.100 Y49.720 F2400.000 E3.03296
G1 X167.890 Y49.720 E13.67271
G1 X168.620 Y49.800 E13.72287
G1 X169.090 Y49.910 E13.75583
G1 X169.560 Y50.060 E13.78953
G1 X170.240 Y50.350 E13.84002
G1 X170.660 Y50.600 E13.87340
G1 X171.060 Y50.880 E13.90674
G1 X171.250 Y51.030 E13.92328
G1 X171.440 Y51.200 E13.94069
G1 X171.780 Y51.540 E13.97353
G1 X171.950 Y51.730 E13.99094
G1 X172.100 Y51.920 E14.00747
G1 X172.380 Y52.320 E14.04082
G1 X172.630 Y52.740 E14.07420
G1 X172.920 Y53.420 E14.12469
G1 X173.070 Y53.890 E14.15838
G1 X173.180 Y54.360 E14.19135
G1 X173.260 Y55.090 E14.24150
G1 X173.240 Y101.090 E17.38309
G1 X173.160 Y101.630 E17.42038
G1 X173.030 Y102.150 E17.45698
G1 X172.850 Y102.660 E17.49392
G1 X172.620 Y103.160 E17.53151
G1 X156.070 Y128.540 E19.60081
G1 X155.600 Y129.180 E19.65504
G1 X155.460 Y129.350 E19.67008
G1 X155.140 Y129.690 E19.70197
G1 X154.380 Y130.380 E19.77207
G1 X153.980 Y130.680 E19.80622
G1 X152.900 Y131.310 E19.89161
G1 X152.530 Y131.480 E19.91942
G1 X151.390 Y131.880 E20.00193
G1 X151.150 Y131.950 E20.01901
G1 X150.640 Y132.050 E20.05450
G1 X149.820 Y132.140 E20.11084
G1 X149.230 Y132.170 E20.15118
G1 X30.170 Y132.140 E28.28245
G1 X29.350 Y132.050 E28.33878
G1 X28.840 Y131.950 E28.37428
G1 X27.460 Y131.480 E28.47384
G1 X27.090 Y131.310 E28.50165
G1 X26.010 Y130.680 E28.58704
G1 X25.610 Y130.380 E28.62119
G1 X24.850 Y129.690 E28.69130
G1 X24.530 Y129.350 E28.72318
G1 X24.390 Y129.180 E28.73822
G1 X23.740 Y128.290 E28.81349
G1 X7.500 Y103.390 E30.84377
G1 X7.370 Y103.160 E30.86182
G1 X7.140 Y102.660 E30.89940
G1 X6.960 Y102.150 E30.93634
G1 X6.830 Y101.630 E30.97295
G1 X6.750 Y101.090 E31.01023
G1 X6.730 Y55.090 E34.15182
G1 X6.810 Y54.360 E34.20198
G1 X6.920 Y53.890 E34.23494
G1 X7.070 Y53.420 E34.26864
G1 X7.360 Y52.740 E34.31912
G1 X7.610 Y52.320 E34.35250
G1 X7.890 Y51.920 E34.38585
G1 X8.040 Y51.730 E34.40238
G1 X8.210 Y51.540 E34.41980
G1 X8.550 Y51.200 E34.45263
G1 X8.740 Y51.030 E34.47005
G1 X8.930 Y50.880 E34.48658
G1 X9.330 Y50.600 E34.51993
G1 X9.750 Y50.350 E34.55331
G1 X10.430 Y50.060 E34.60379
G1 X10.900 Y49.910 E34.63749
G1 X11.370 Y49.800 E34.67045
G1 X11.516 Y49.783 E34.68048
G1 F4800.000 E31.68048
G1 Z1.000 F8400.000
G92 E0
G1 X11.660 Y50.390
G1 Z0.250
G1 F4800.000 E3.00000
G1 X11.890 Y50.360 F2400.000 E3.01584
G1 X12.350 Y50.340 E3.04729
G1 X168.100 Y50.360 E13.68431
G1 X168.780 Y50.470 E13.73135
G1 X169.010 Y50.530 E13.74759
G1 X169.450 Y50.680 E13.77934
G1 X169.870 Y50.860 E13.81054
G1 X170.270 Y51.090 E13.84206
G1 X170.650 Y51.350 E13.87350
G1 X171.010 Y51.640 E13.90507
G1 X171.180 Y51.800 E13.92102
G1 X171.340 Y51.970 E13.93696
G1 X171.630 Y52.330 E13.96853
G1 X171.890 Y52.710 E13.99998
G1 X172.120 Y53.110 E14.03149
G1 X172.300 Y53.530 E14.06270
G1 X172.450 Y53.970 E14.09445
G1 X172.510 Y54.200 E14.11068
G1 X172.620 Y54.880 E14.15772
G1 X172.630 Y100.810 E17.29454
G1 X172.580 Y101.340 E17.33089
G1 X172.470 Y101.850 E17.36652
G1 X172.310 Y102.350 E17.40238
G1 X172.090 Y102.830 E17.43844
G1 X171.830 Y103.280 E17.47393
G1 X155.570 Y128.180 E19.50496
G1 X154.990 Y128.950 E19.57080
G1 X153.980 Y129.900 E19.66549
G1 X153.630 Y130.160 E19.69527
G1 X152.770 Y130.670 E19.76356
G1 X152.290 Y130.910 E19.80021
G1 X151.220 Y131.280 E19.87753
G1 X150.770 Y131.390 E19.90917
G1 X149.750 Y131.520 E19.97939
G1 X149.230 Y131.550 E20.01497
G1 X30.760 Y131.550 E28.10593
G1 X29.440 Y131.430 E28.19645
G1 X28.990 Y131.340 E28.22780
G1 X27.700 Y130.910 E28.32066
G1 X26.740 Y130.400 E28.39490
G1 X26.360 Y130.160 E28.42560
G1 X26.010 Y129.900 E28.45538
G1 X25.140 Y129.100 E28.53609
G1 X25.000 Y128.950 E28.55011
G1 X24.260 Y127.950 E28.63507
G1 X8.030 Y103.060 E30.66441
G1 X7.900 Y102.830 E30.68245
G1 X7.680 Y102.350 E30.71851
G1 X7.520 Y101.850 E30.75436
G1 X7.410 Y101.340 E30.78999
G1 X7.360 Y100.810 E30.82635
G1 X7.370 Y54.880 E33.96316
G1 X7.480 Y54.200 E34.01021
G1 X7.540 Y53.970 E34.02644
G1 X7.690 Y53.530 E34.05819
G1 X7.870 Y53.110 E34.08940
G1 X8.100 Y52.710 E34.12091
G1 X8.360 Y52.330 E34.15236
G1 X8.650 Y51.970 E34.18393
G1 X8.810 Y51.800 E34.19987
G1 X8.980 Y51.640 E34.21581
G1 X9.340 Y51.350 E34.24739
G1 X9.720 Y51.090 E34.27883
G1 X10.120 Y50.860 E34.31034
G1 X10.540 Y50.680 E34.34155
G1 X10.980 Y50.530 E34.37330
G1 X11.210 Y50.470 E34.38953
G1 X11.557 Y50.408 E34.41358
G1 F4800.000 E31.41358
G1 Z1.000 F8400.000
G92 E0
G1 X122.726 Y107.912
G1 Z0.250
G1 F4800.000 E3.00000
G1 X123.829 Y106.393 F2400.000 E3.12816
G1 X125.224 Y105.138 E3.25633
G1 X126.849 Y104.199 E3.38450
G1 X128.634 Y103.619 E3.51267
G1 X130.500 Y103.423 E3.64084
G1 X132.366 Y103.619 E3.76901
G1 X134.151 Y104.199 E3.89717
G1 X135.776 Y105.138 E4.02535
G1 X137.171 Y106.393 E4.15351
G1 X138.274 Y107.912 E4.28168
G1 X139.038 Y109.626 E4.40985
G1 X139.428 Y111.462 E4.53802
G1 X139.428 Y113.338 E4.66618
G1 X139.038 Y115.174 E4.79435
G1 X138.274 Y116.888 E4.92252
G1 X137.171 Y118.407 E5.05068
G1 X135.776 Y119.662 E5.17885
G1 X134.151 Y120.601 E5.30702
G1 X132.366 Y121.181 E5.43519
G1 X130.500 Y121.377 E5.56336
G1 X128.634 Y121.181 E5.69152
G1 X126.849 Y120.601 E5.81969
G1 X125.224 Y119.662 E5.94786
G1 X123.829 Y118.407 E6.07603
G1 X122.726 Y116.888 E6.20420
G1 X121.962 Y115.174 E6.33237
G1 X121.572 Y113.338 E6.46053
G1 X121.572 Y111.462 E6.58870
G1 X121.962 Y109.626 E6.71686
G1 X122.683 Y108.008 E6.83787
G1 F4800.000 E3.83787
G1 Z1.000 F8400.000
G92 E0
G1 X123.267 Y108.224
G1 Z0.250
G1 F4800.000 E3.00000
G1 X124.293 Y106.812 F2400.000 E3.11924
G1 X125.591 Y105.643 E3.23849
G1 X127.103 Y104.770 E3.35774
G1 X128.764 Y104.231 E3.47698
G1 X130.500 Y104.048 E3.59623
G1 X132.236 Y104.231 E3.71548
G1 X133.897 Y104.770 E3.83472
G1 X135.409 Y105.643 E3.95397
G1 X136.707 Y106.812 E4.07322
G1 X137.733 Y108.224 E4.19246
G1 X138.443 Y109.819 E4.31171
G1 X138.806 Y111.527 E4.43095
G1 X138.806 Y113.273 E4.55020
G1 X138.443 Y114.981 E4.66944
G1 X137.733 Y116.576 E4.78869
G1 X136.707 Y117.988 E4.90793
G1 X135.409 Y119.157 E5.02718
G1 X133.897 Y120.030 E5.14643
G1 X132.236 Y120.569 E5.26567
G1 X130.500 Y120.752 E5.38492
G1 X128.764 Y120.569 E5.50417
G1 X127.103 Y120.030 E5.62341
G1 X125.591 Y119.157 E5.74266
G1 X124.293 Y117.988 E5.86191
G1 X123.267 Y116.576 E5.98115
G1 X122.557 Y114.981 E6.10040
G1 X122.194 Y113.273 E6.21964
G1 X122.194 Y111.527 E6.33889
G1 X122.557 Y109.819 E6.45813
G1 X123.224 Y108.320 E6.57021
G1 F4800.000 E3.57021
G1 Z1.000 F8400.000
G92 E0
G1 X110.247 Y125.254
G1 Z0.250
G1 F4800.000 E3.00000
G1 X109.998 Y124.912 F2400.000 E3.02889
G1 X109.826 Y124.525 E3.05778
G1 X109.738 Y124.111 E3.08666
G1 X109.738 Y115.189 E3.69606
G1 X109.826 Y114.775 E3.72491
G1 X110.000 Y114.386 E3.75405
G1 X110.247 Y114.046 E3.78272
G1 X110.561 Y113.763 E3.81160
G1 X110.927 Y113.552 E3.84048
G1 X111.329 Y113.421 E3.86938
G1 X112.721 Y113.275 E3.96497
G1 X112.721 Y99.929 E4.87645
G1 X93.971 Y99.929 E6.15699
G1 X93.971 Y95.871 E6.43407
G1 X167.029 Y95.871 E11.42354
G1 X167.029 Y99.929 E11.70062
G1 X148.279 Y99.929 E12.98116
G1 X148.279 Y113.275 E13.89264
G1 X149.671 Y113.421 E13.98824
G1 X150.073 Y113.552 E14.01713
G1 X150.439 Y113.763 E14.04601
G1 X150.753 Y114.046 E14.07490
G1 X151.002 Y114.388 E14.10379
G1 X151.174 Y114.775 E14.13267
G1 X151.262 Y115.189 E14.16156
G1 X151.262 Y124.111 E14.77096
G1 X151.174 Y124.525 E14.79985
G1 X151.002 Y124.912 E14.82873
G1 X150.753 Y125.254 E14.85762
G1 X150.439 Y125.537 E14.88650
G1 X150.073 Y125.748 E14.91539
G1 X149.671 Y125.879 E14.94428
G1 X149.199 Y125.929 E14.97666
G1 X111.801 Y125.929 E17.53078
G1 X111.329 Y125.879 E17.56317
G1 X110.927 Y125.748 E17.59206
G1 X110.561 Y125.537 E17.62094
G1 X110.325 Y125.324 E17.64265
G1 F4800.000 E14.64265
G1 Z1.000 F8400.000
G92 E0
G1 X109.782 Y125.672
G1 Z0.250
G1 F4800.000 E3.00000
G1 X109.457 Y125.224 F2400.000 E3.03781
G1 X109.232 Y124.718 E3.07562
G1 X109.116 Y124.177 E3.11343
G1 X109.116 Y115.123 E3.73175
G1 X109.231 Y114.582 E3.76954
G1 X109.459 Y114.073 E3.80761
G1 X109.782 Y113.628 E3.84517
G1 X110.193 Y113.258 E3.88298
G1 X110.673 Y112.981 E3.92078
G1 X111.199 Y112.810 E3.95860
G1 X112.100 Y112.715 E4.02044
G1 X112.100 Y100.550 E4.85126
G1 X93.350 Y100.550 E6.13180
G1 X93.350 Y95.250 E6.49377
G1 X167.650 Y95.250 E11.56812
G1 X167.650 Y100.550 E11.93009
G1 X148.900 Y100.550 E13.21063
G1 X148.900 Y112.715 E14.04145
G1 X149.801 Y112.810 E14.10329
G1 X150.327 Y112.981 E14.14110
G1 X150.807 Y113.258 E14.17891
G1 X151.218 Y113.628 E14.21672
G1 X151.543 Y114.076 E14.25453
G1 X151.768 Y114.582 E14.29233
G1 X151.884 Y115.123 E14.33014
G1 X151.884 Y124.177 E14.94847
G1 X151.768 Y124.718 E14.98628
G1 X151.543 Y125.224 E15.02408
G1 X151.218 Y125.672 E15.06189
G1 X150.807 Y126.042 E15.09970
G1 X150.327 Y126.319 E15.13750
G1 X149.801 Y126.490 E15.17532
G1 X149.232 Y126.550 E15.21438
G1 X111.768 Y126.550 E17.77296
G1 X111.199 Y126.490 E17.81202
G1 X110.673 Y126.319 E17.84984
G1 X110.193 Y126.042 E17.88764
G1 X109.860 Y125.742 E17.91828
G1 X110.910 Y125.035 F8400.000
G1 X110.512 Y124.638 F3360.000 E17.95703
G1 X110.162 Y123.402 F8400.000
G1 X112.265 Y125.505 F3360.000 E18.16218
G1 X113.149 Y125.505 F8400.000
G1 X110.161 Y122.517 F3360.000 E18.45360
G1 X110.161 Y121.632 F8400.000
G1 X114.035 Y125.505 F3360.000 E18.83136
G1 X114.918 Y125.505 F8400.000
G1 X110.161 Y120.748 F3360.000 E19.29531
G1 X110.161 Y119.863 F8400.000
G1 X115.804 Y125.505 F3360.000 E19.84560
G1 X116.688 Y125.505 F8400.000
G1 X110.161 Y118.979 F3360.000 E20.48209
G1 X110.161 Y118.093 F8400.000
G1 X117.573 Y125.505 F3360.000 E21.20491
G1 X118.457 Y125.505 F8400.000
G1 X110.161 Y117.209 F3360.000 E22.01394
G1 X110.161 Y116.324 F8400.000
G1 X119.342 Y125.505 F3360.000 E22.90929
G1 X120.226 Y125.505 F8400.000
G1 X110.161 Y115.440 F3360.000 E23.89085
G1 X110.270 Y114.664 F8400.000
G1 X121.111 Y125.505 F3360.000 E24.94813
G1 X121.996 Y125.505 F8400.000
G1 X110.642 Y114.150 F3360.000 E26.05539
G1 X111.222 Y113.847 F8400.000
G1 X122.880 Y125.505 F3360.000 E27.19231
G1 X123.766 Y125.505 F8400.000
G1 X112.015 Y113.755 F3360.000 E28.33827
G1 X112.815 Y113.671 F8400.000
G1 X124.650 Y125.505 F3360.000 E29.49236
G1 X125.535 Y125.505 F8400.000
G1 X113.145 Y113.115 F3360.000 E30.70065
G1 X113.145 Y112.231 F8400.000
G1 X126.419 Y125.505 F3360.000 E31.99515
G1 X127.304 Y125.505 F8400.000
G1 X113.145 Y111.346 F3360.000 E33.37597
G1 X113.145 Y110.462 F8400.000
G1 X128.188 Y125.505 F3360.000 E34.84300
G1 X129.073 Y125.505 F8400.000
G1 X113.145 Y109.577 F3360.000 E36.39636
G1 X113.145 Y108.693 F8400.000
G1 X129.957 Y125.505 F3360.000 E38.03592
G1 X130.842 Y125.505 F8400.000
G1 X126.193 Y120.855 F3360.000 E38.48939
G1 X127.579 Y121.358 F8400.000
G1 X131.726 Y125.505 F3360.000 E38.89383
G1 X132.612 Y125.505 F8400.000
G1 X128.747 Y121.640 F3360.000 E39.27076
G1 X129.734 Y121.744 F8400.000
G1 X133.496 Y125.505 F3360.000 E39.63755
G1 X134.381 Y125.505 F8400.000
G1 X130.643 Y121.767 F3360.000 E40.00207
G1 X131.443 Y121.684 F8400.000
G1 X135.265 Y125.505 F3360.000 E40.37472
G1 X136.150 Y125.505 F8400.000
G1 X132.244 Y121.599 F3360.000 E40.75565
G1 X132.921 Y121.392 F8400.000
G1 X137.034 Y125.505 F3360.000 E41.15678
G1 X137.919 Y125.505 F8400.000
G1 X133.588 Y121.174 F3360.000 E41.57915
G1 X134.248 Y120.950 F8400.000
G1 X138.803 Y125.505 F3360.000 E42.02338
G1 X139.688 Y125.505 F8400.000
G1 X134.809 Y120.626 F3360.000 E42.49920
G1 X135.369 Y120.302 F8400.000
G1 X140.572 Y125.505 F3360.000 E43.00660
G1 X141.458 Y125.505 F8400.000
G1 X135.931 Y119.978 F3360.000 E43.54558
G1 X136.399 Y119.561 F8400.000
G1 X142.342 Y125.505 F3360.000 E44.12517
G1 X143.227 Y125.505 F8400.000
G1 X136.864 Y119.143 F3360.000 E44.74566
G1 X137.330 Y118.723 F8400.000
G1 X144.112 Y125.505 F3360.000 E45.40705
G1 X144.996 Y125.505 F8400.000
G1 X137.723 Y118.233 F3360.000 E46.11629
G1 X138.096 Y117.720 F8400.000
G1 X145.881 Y125.505 F3360.000 E46.87552
G1 X146.765 Y125.505 F8400.000
G1 X138.468 Y117.208 F3360.000 E47.68468
G1 X138.781 Y116.636 F8400.000
G1 X147.650 Y125.505 F3360.000 E48.54963
G1 X148.534 Y125.505 F8400.000
G1 X139.053 Y116.024 F3360.000 E49.47429
G1 X139.326 Y115.411 F8400.000
G1 X149.414 Y125.500 F3360.000 E50.45813
G1 X150.116 Y125.318 F8400.000
G1 X139.527 Y114.729 F3360.000 E51.49078
G1 X139.683 Y113.999 F8400.000
G1 X150.584 Y124.901 F3360.000 E52.55392
G1 X150.834 Y124.266 F8400.000
G1 X139.838 Y113.270 F3360.000 E53.62629
G1 X139.851 Y112.398 F8400.000
G1 X150.839 Y123.386 F3360.000 E54.69784
G1 X150.839 Y122.502 F8400.000
G1 X139.851 Y111.514 F3360.000 E55.76939
G1 X139.698 Y110.476 F8400.000
G1 X150.839 Y121.617 F3360.000 E56.85590
G1 X150.839 Y120.733 F8400.000
G1 X139.459 Y109.353 F3360.000 E57.96572
G1 X138.798 Y107.807 F8400.000
G1 X150.839 Y119.848 F3360.000 E59.13995
G1 X150.839 Y118.964 F8400.000
G1 X128.170 Y96.295 F3360.000 E61.35063
G1 X129.055 Y96.295 F8400.000
G1 X150.839 Y118.078 F3360.000 E63.47503
G1 X150.839 Y117.195 F8400.000
G1 X129.939 Y96.295 F3360.000 E65.51317
G1 X130.824 Y96.295 F8400.000
G1 X147.855 Y113.326 F3360.000 E67.17411
G1 X148.249 Y113.719 F8400.000
G1 X150.839 Y116.309 F3360.000 E67.42671
G1 X150.831 Y115.418 F8400.000
G1 X149.236 Y113.823 F3360.000 E67.58221
G1 X147.855 Y112.441 F8400.000
G1 X131.709 Y96.295 F3360.000 E69.15681
G1 X132.593 Y96.295 F8400.000
G1 X147.855 Y111.557 F3360.000 E70.64521
G1 X147.855 Y110.672 F8400.000
G1 X133.479 Y96.295 F3360.000 E72.04728
G1 X134.362 Y96.295 F8400.000
G1 X147.855 Y109.788 F3360.000 E73.36315
G1 X147.855 Y108.902 F8400.000
G1 X135.248 Y96.295 F3360.000 E74.59268
G1 X136.132 Y96.295 F8400.000
G1 X147.855 Y108.018 F3360.000 E75.73602
G1 X147.855 Y107.133 F8400.000
G1 X137.017 Y96.295 F3360.000 E76.79301
G1 X137.901 Y96.295 F8400.000
G1 X147.855 Y106.249 F3360.000 E77.76381
G1 X147.855 Y105.364 F8400.000
G1 X138.786 Y96.295 F3360.000 E78.64828
G1 X139.670 Y96.295 F8400.000
G1 X147.855 Y104.479 F3360.000 E79.44647
G1 X147.855 Y103.595 F8400.000
G1 X140.555 Y96.295 F3360.000 E80.15840
G1 X141.439 Y96.295 F8400.000
G1 X147.855 Y102.710 F3360.000 E80.78406
G1 X147.855 Y101.826 F8400.000
G1 X142.324 Y96.295 F3360.000 E81.32346
G1 X143.209 Y96.295 F8400.000
G1 X147.855 Y100.941 F3360.000 E81.77652
G1 X147.855 Y100.056 F8400.000
G1 X144.094 Y96.295 F3360.000 E82.14338
G1 X144.978 Y96.295 F8400.000
G1 X148.188 Y99.506 F3360.000 E82.45645
G1 X149.073 Y99.505 F8400.000
G1 X145.863 Y96.295 F3360.000 E82.76952
G1 X146.747 Y96.295 F8400.000
G1 X149.958 Y99.506 F3360.000 E83.08259
G1 X150.842 Y99.505 F8400.000
G1 X147.632 Y96.295 F3360.000 E83.39566
G1 X148.517 Y96.295 F8400.000
G1 X151.727 Y99.506 F3360.000 E83.70874
G1 X152.611 Y99.505 F8400.000
G1 X149.401 Y96.295 F3360.000 E84.02181
G1 X150.286 Y96.295 F8400.000
G1 X153.496 Y99.506 F3360.000 E84.33488
G1 X154.381 Y99.505 F8400.000
G1 X151.170 Y96.295 F3360.000 E84.64795
G1 X152.055 Y96.295 F8400.000
G1 X155.265 Y99.506 F3360.000 E84.96103
G1 X156.150 Y99.505 F8400.000
G1 X152.940 Y96.295 F3360.000 E85.27410
G1 X153.825 Y96.295 F8400.000
G1 X157.035 Y99.505 F3360.000 E85.58717
G1 X157.919 Y99.505 F8400.000
G1 X154.709 Y96.295 F3360.000 E85.90024
G1 X155.594 Y96.295 F8400.000
G1 X158.804 Y99.505 F3360.000 E86.21331
G1 X159.688 Y99.505 F8400.000
G1 X156.478 Y96.295 F3360.000 E86.52639
G1 X157.363 Y96.295 F8400.000
G1 X160.573 Y99.505 F3360.000 E86.83946
G1 X161.458 Y99.506 F8400.000
G1 X158.247 Y96.295 F3360.000 E87.15260
G1 X159.132 Y96.295 F8400.000
G1 X162.343 Y99.505 F3360.000 E87.46567
G1 X163.227 Y99.506 F8400.000
